%Generated by HPGL2GCODE
(Start)
M03 S500
G4 P1
M03 S750
G4 P1
M03 S1000
G4 P2
(Initialize HP-GL/2-mode)
(PT0)
G21
G90
G94
F80.00
G00 Z1.0000
(SP4 - Bohrer einsetzen)
M03
G4 P1
G00 X3.7500Y4.3000
G01 Z-1.9000
G00 Z1.0000
G00 X10.0250Y10.1500
G01 Z-1.9000
G00 Z1.0000
G00 X9.8000Y16.6250
G01 Z-1.9000
G00 Z1.0000
G00 X9.8000Y19.1500
G01 Z-1.9000
G00 Z1.0000
G00 X9.8000Y21.7000
G01 Z-1.9000
G00 Z1.0000
G00 X9.8000Y24.2500
G01 Z-1.9000
G00 Z1.0000
G00 X10.1500Y31.2500
G01 Z-1.9000
G00 Z1.0000
G00 X3.7500Y34.7750
G01 Z-1.9000
G00 Z1.0000
G00 X45.1500Y31.1500
G01 Z-1.9000
G00 Z1.0000
G00 X45.6250Y23.9750
G01 Z-1.9000
G00 Z1.0000
G00 X45.6250Y21.4250
G01 Z-1.9000
G00 Z1.0000
G00 X45.6250Y18.9000
G01 Z-1.9000
G00 Z1.0000
G00 X45.6250Y16.3500
G01 Z-1.9000
G00 Z1.0000
G00 X50.7500Y19.7750
G01 Z-1.9000
G00 Z1.0000
G00 X45.7000Y10.1250
G01 Z-1.9000
(Ende)
G80
G90
G00 Z10 X0 Y0
M05
M09
M30