%Generated by HPGL2GCODE
(Start)
M03 S500
G4 P1
M03 S750
G4 P1
M03 S1000
G4 P2
(Initialize HP-GL/2-mode)
(PT0)
G21
G90
G94
F80.00
G00 Z1.0000
(SP2)
M03
G4 P1
G00 X2.5500Y3.3000
G01 Z-0.1400
G01 X2.2750Y3.7750
G01 X2.2000Y4.3000
G01 X2.2750Y4.8250
G01 X2.5500Y5.3000
G01 X2.9750Y5.6500
G01 X3.4750Y5.8250
G01 X4.0000Y5.8250
G01 X4.5250Y5.6500
G01 X4.9250Y5.3000
G01 X5.2000Y4.8250
G01 X5.3000Y4.3000
G01 X5.2000Y3.7750
G01 X4.9250Y3.3000
G01 X4.5250Y2.9500
G01 X4.0000Y2.7750
G01 X3.4750Y2.7750
G01 X2.9750Y2.9500
G01 X2.5500Y3.3000
g00 Z1.0000
g00 X2.4725Y3.2343
g01 Z-0.1400
g01 X2.1787Y3.7417
g01 X2.0990Y4.3000
g01 X2.1787Y4.8583
g01 X2.4725Y5.3657
g01 X2.9252Y5.7385
g01 X3.4580Y5.9250
g01 X4.0162Y5.9250
g01 X4.5757Y5.7385
g01 X5.0033Y5.3644
g01 X5.2951Y4.8604
g01 X5.4018Y4.3000
g01 X5.2951Y3.7396
g01 X5.0033Y3.2356
g01 X4.5757Y2.8615
g01 X4.0162Y2.6750
g01 X3.4580Y2.6750
g01 X2.9252Y2.8615
g01 X2.4725Y3.2343
g00 Z1.0000
g00 X2.3950Y3.1686
g01 Z-0.1400
g01 X2.0825Y3.7083
g01 X1.9980Y4.3000
g01 X2.0825Y4.8917
g01 X2.3950Y5.4314
g01 X2.8753Y5.8270
g01 X3.4410Y6.0250
g01 X4.0325Y6.0250
g01 X4.6264Y5.8270
g01 X5.0815Y5.4288
g01 X5.3901Y4.8958
g01 X5.5036Y4.3000
g01 X5.3901Y3.7042
g01 X5.0815Y3.1712
g01 X4.6264Y2.7730
g01 X4.0325Y2.5750
g01 X3.4410Y2.5750
g01 X2.8753Y2.7730
g01 X2.3950Y3.1686
g00 Z1.0000
g00 X2.3175Y3.1028
g01 Z-0.1400
g01 X1.9862Y3.6750
g01 X1.8970Y4.3000
g01 X1.9862Y4.9250
g01 X2.3175Y5.4972
g01 X2.8255Y5.9155
g01 X3.4240Y6.1250
g01 X4.0487Y6.1250
g01 X4.6771Y5.9155
g01 X5.1598Y5.4932
g01 X5.4852Y4.9312
g01 X5.6054Y4.3000
g01 X5.4852Y3.6688
g01 X5.1598Y3.1068
g01 X4.6771Y2.6845
g01 X4.0487Y2.4750
g01 X3.4240Y2.4750
g01 X2.8255Y2.6845
g01 X2.3175Y3.1028
G00 Z1.0000
G00 X8.8250Y9.1750
G01 Z-0.1400
G01 X8.5750Y9.6250
G01 X8.4750Y10.1500
G01 X8.5750Y10.7000
G01 X8.8250Y11.1500
G01 X9.2500Y11.5000
G01 X9.7500Y11.6750
G01 X10.3000Y11.6750
G01 X10.8000Y11.5000
G01 X11.2000Y11.1500
G01 X11.4750Y10.7000
G01 X11.5750Y10.1500
G01 X11.4750Y9.6250
G01 X11.2000Y9.1750
G01 X10.8000Y8.8250
G01 X10.3000Y8.6250
G01 X9.7500Y8.6250
G01 X9.2500Y8.8250
G01 X8.8250Y9.1750
g00 Z1.0000
g00 X8.7468Y9.1099
g01 Z-0.1400
g01 X8.4798Y9.5905
g01 X8.3733Y10.1496
g01 X8.4796Y10.7341
g01 X8.7468Y11.2151
g01 X9.2002Y11.5885
g01 X9.7330Y11.7750
g01 X10.3170Y11.7750
g01 X10.8513Y11.5880
g01 X11.2774Y11.2152
g01 X11.5701Y10.7362
g01 X11.6767Y10.1496
g01 X11.5698Y9.5884
g01 X11.2774Y9.1098
g01 X10.8530Y8.7385
g01 X10.3193Y8.5250
g01 X9.7307Y8.5250
g01 X9.1984Y8.7379
g01 X8.7468Y9.1099
g00 Z1.0000
g00 X8.6686Y9.0447
g01 Z-0.1400
g01 X8.3846Y9.5560
g01 X8.2716Y10.1492
g01 X8.3841Y10.7683
g01 X8.6686Y11.2803
g01 X9.1503Y11.6770
g01 X9.7160Y11.8750
g01 X10.3340Y11.8750
g01 X10.9026Y11.6760
g01 X11.3547Y11.2804
g01 X11.6651Y10.7725
g01 X11.7784Y10.1492
g01 X11.6647Y9.5518
g01 X11.3547Y9.0446
g01 X10.9060Y8.6520
g01 X10.3385Y8.4250
g01 X9.7115Y8.4250
g01 X9.1469Y8.6509
g01 X8.6686Y9.0447
g00 Z1.0000
g00 X8.5904Y8.9796
g01 Z-0.1400
g01 X8.2893Y9.5215
g01 X8.1699Y10.1487
g01 X8.2887Y10.8024
g01 X8.5904Y11.3454
g01 X9.1005Y11.7655
g01 X9.6990Y11.9750
g01 X10.3510Y11.9750
g01 X10.9539Y11.7640
g01 X11.4321Y11.3456
g01 X11.7602Y10.8087
g01 X11.8802Y10.1487
g01 X11.7595Y9.5152
g01 X11.4321Y8.9794
g01 X10.9590Y8.5655
g01 X10.3578Y8.3250
g01 X9.6922Y8.3250
g01 X9.0953Y8.5638
g01 X8.5904Y8.9796
G00 Z1.0000
G00 X8.6500Y15.7750
G01 Z-0.1400
G01 X8.1500Y16.2750
G01 X8.1500Y16.9750
G01 X8.6500Y17.4750
G01 X10.9500Y17.4750
G01 X11.3250Y17.0750
G01 X16.9000Y17.1250
G01 X16.8750Y19.0250
G01 X16.9000Y19.1000
G01 X16.9000Y19.1750
G01 X16.9250Y19.2250
G01 X16.9500Y19.3000
G01 X17.0250Y19.3250
G01 X17.0500Y19.4000
G01 X17.1250Y19.4250
G01 X17.1750Y19.4500
G01 X17.2500Y19.4500
G01 X17.3250Y19.4750
G01 X23.3250Y19.4750
G01 X23.5000Y19.4250
G01 X24.7500Y19.4250
G01 X24.7500Y18.6750
G01 X23.6000Y18.6750
G01 X23.3250Y18.5750
G01 X17.7750Y18.5750
G01 X17.8000Y16.6750
G01 X17.7750Y16.6000
G01 X17.7750Y16.5250
G01 X17.7500Y16.4750
G01 X17.7250Y16.4250
G01 X17.6500Y16.3750
G01 X17.6250Y16.3000
G01 X17.5500Y16.3000
G01 X17.5000Y16.2500
G01 X17.4250Y16.2500
G01 X17.3500Y16.2250
G01 X11.3500Y16.1750
G01 X10.9500Y15.7750
G01 X8.6500Y15.7750
g00 Z1.0000
g00 X8.6086Y15.6750
g01 Z-0.1400
g01 X8.0500Y16.2336
g01 X8.0500Y17.0164
g01 X8.6086Y17.5750
g01 X10.9933Y17.5750
g01 X11.3680Y17.1754
g01 X16.7987Y17.2241
g01 X16.7748Y19.0406
g01 X16.8000Y19.1162
g01 X16.8000Y19.1986
g01 X16.8709Y19.3791
g01 X16.9459Y19.4041
g01 X16.9709Y19.4791
g01 X17.1514Y19.5500
g01 X17.2338Y19.5500
g01 X17.3088Y19.5750
g01 X23.3390Y19.5750
g01 X23.5140Y19.5250
g01 X24.8500Y19.5250
g01 X24.8500Y18.5750
g01 X23.6176Y18.5750
g01 X23.3426Y18.4750
g01 X17.8763Y18.4750
g01 X17.9002Y16.6594
g01 X17.8750Y16.5838
g01 X17.8750Y16.5014
g01 X17.8026Y16.3565
g01 X17.7340Y16.3108
g01 X17.6971Y16.2000
g01 X17.5914Y16.2000
g01 X17.5414Y16.1500
g01 X17.4412Y16.1500
g01 X17.3666Y16.1251
g01 X11.3918Y16.0753
g01 X10.9914Y15.6750
g01 X8.6086Y15.6750
g00 Z1.0000
g00 X8.5672Y15.5750
g01 Z-0.1400
g01 X7.9500Y16.1922
g01 X7.9500Y17.0578
g01 X8.5672Y17.6750
g01 X11.0366Y17.6750
g01 X11.4109Y17.2758
g01 X16.6974Y17.3232
g01 X16.6746Y19.0562
g01 X16.7000Y19.1325
g01 X16.7000Y19.2222
g01 X16.7919Y19.4581
g01 X16.8669Y19.4831
g01 X16.8919Y19.5581
g01 X17.1278Y19.6500
g01 X17.2176Y19.6500
g01 X17.2926Y19.6750
g01 X23.3530Y19.6750
g01 X23.5280Y19.6250
g01 X24.9500Y19.6250
g01 X24.9500Y18.4750
g01 X23.6352Y18.4750
g01 X23.3602Y18.3750
g01 X17.9777Y18.3750
g01 X18.0004Y16.6438
g01 X17.9750Y16.5675
g01 X17.9750Y16.4778
g01 X17.8801Y16.2881
g01 X17.8180Y16.2467
g01 X17.7692Y16.1000
g01 X17.6328Y16.1000
g01 X17.5828Y16.0500
g01 X17.4575Y16.0500
g01 X17.3833Y16.0253
g01 X11.4335Y15.9757
g01 X11.0328Y15.5750
g01 X8.5672Y15.5750
g00 Z1.0000
g00 X8.5257Y15.4750
g01 Z-0.1400
g01 X7.8500Y16.1507
g01 X7.8500Y17.0993
g01 X8.5257Y17.7750
g01 X11.0800Y17.7750
g01 X11.4539Y17.3762
g01 X16.5961Y17.4223
g01 X16.5744Y19.0718
g01 X16.6000Y19.1487
g01 X16.6000Y19.2458
g01 X16.7128Y19.5372
g01 X16.7878Y19.5622
g01 X16.8128Y19.6372
g01 X17.1042Y19.7500
g01 X17.2013Y19.7500
g01 X17.2763Y19.7750
g01 X23.3670Y19.7750
g01 X23.5420Y19.7250
g01 X25.0500Y19.7250
g01 X25.0500Y18.3750
g01 X23.6529Y18.3750
g01 X23.3779Y18.2750
g01 X18.0790Y18.2750
g01 X18.1006Y16.6282
g01 X18.0750Y16.5513
g01 X18.0750Y16.4542
g01 X17.9577Y16.2196
g01 X17.9021Y16.1825
g01 X17.8412Y16.0000
g01 X17.6743Y16.0000
g01 X17.6243Y15.9500
g01 X17.4737Y15.9500
g01 X17.3999Y15.9254
g01 X11.4753Y15.8760
g01 X11.0743Y15.4750
g01 X8.5257Y15.4750
G00 Z1.0000
G00 X8.6500Y18.3000
G01 Z-0.1400
G01 X8.1500Y18.8000
G01 X8.1500Y19.5000
G01 X8.6500Y20.0000
G01 X10.6000Y20.0000
G01 X12.3250Y20.7500
G01 X12.4000Y20.7750
G01 X12.5000Y20.8000
G01 X15.8750Y20.8000
G01 X15.8750Y19.9000
G01 X12.6000Y19.9000
G01 X11.4500Y19.4000
G01 X11.4500Y18.8000
G01 X10.9500Y18.3000
G01 X8.6500Y18.3000
g00 Z1.0000
g00 X8.6086Y18.2000
g01 Z-0.1400
g01 X8.0500Y18.7586
g01 X8.0500Y19.5414
g01 X8.6086Y20.1000
g01 X10.5792Y20.1000
g01 X12.2892Y20.8435
g01 X12.4877Y20.9000
g01 X15.9750Y20.9000
g01 X15.9750Y19.8000
g01 X12.6208Y19.8000
g01 X11.5500Y19.3344
g01 X11.5500Y18.7586
g01 X10.9914Y18.2000
g01 X8.6086Y18.2000
g00 Z1.0000
g00 X8.5672Y18.1000
g01 Z-0.1400
g01 X7.9500Y18.7172
g01 X7.9500Y19.5828
g01 X8.5672Y20.2000
g01 X10.5584Y20.2000
g01 X12.2534Y20.9369
g01 X12.4754Y21.0000
g01 X16.0750Y21.0000
g01 X16.0750Y19.7000
g01 X12.6416Y19.7000
g01 X11.6500Y19.2689
g01 X11.6500Y18.7172
g01 X11.0328Y18.1000
g01 X8.5672Y18.1000
g00 Z1.0000
g00 X8.5257Y18.0000
g01 Z-0.1400
g01 X7.8500Y18.6757
g01 X7.8500Y19.6243
g01 X8.5257Y20.3000
g01 X10.5376Y20.3000
g01 X12.2175Y21.0304
g01 X12.4631Y21.1000
g01 X16.1750Y21.1000
g01 X16.1750Y19.6000
g01 X12.6624Y19.6000
g01 X11.7500Y19.2033
g01 X11.7500Y18.6757
g01 X11.0743Y18.0000
g01 X8.5257Y18.0000
G00 Z1.0000
G00 X8.6500Y20.8500
G01 Z-0.1400
G01 X8.1500Y21.3500
G01 X8.1500Y22.0500
G01 X8.6500Y22.5500
G01 X10.5250Y22.5500
G01 X12.0000Y23.2500
G01 X12.1000Y23.2750
G01 X12.2000Y23.3000
G01 X13.3750Y23.3250
G01 X15.8750Y23.3250
G01 X15.8750Y22.4250
G01 X14.6500Y22.4250
G01 X12.3000Y22.4000
G01 X11.4500Y22.0000
G01 X11.4500Y21.3500
G01 X10.9500Y20.8500
G01 X8.6500Y20.8500
g00 Z1.0000
g00 X8.6086Y20.7500
g01 Z-0.1400
g01 X8.0500Y21.3086
g01 X8.0500Y22.0914
g01 X8.6086Y22.6500
g01 X10.5025Y22.6500
g01 X11.9661Y23.3446
g01 X12.1867Y23.3997
g01 X13.3740Y23.4250
g01 X15.9750Y23.4250
g01 X15.9750Y22.3250
g01 X14.6505Y22.3250
g01 X12.3229Y22.3002
g01 X11.5500Y21.9365
g01 X11.5500Y21.3086
g01 X10.9914Y20.7500
g01 X8.6086Y20.7500
g00 Z1.0000
g00 X8.5672Y20.6500
g01 Z-0.1400
g01 X7.9500Y21.2672
g01 X7.9500Y22.1328
g01 X8.5672Y22.7500
g01 X10.4800Y22.7500
g01 X11.9322Y23.4392
g01 X12.1733Y23.4995
g01 X13.3729Y23.5250
g01 X16.0750Y23.5250
g01 X16.0750Y22.2250
g01 X14.6511Y22.2250
g01 X12.3457Y22.2005
g01 X11.6500Y21.8731
g01 X11.6500Y21.2672
g01 X11.0328Y20.6500
g01 X8.5672Y20.6500
g00 Z1.0000
g00 X8.5257Y20.5500
g01 Z-0.1400
g01 X7.8500Y21.2257
g01 X7.8500Y22.1743
g01 X8.5257Y22.8500
g01 X10.4574Y22.8500
g01 X11.8983Y23.5338
g01 X12.1599Y23.5992
g01 X13.3718Y23.6250
g01 X16.1750Y23.6250
g01 X16.1750Y22.1250
g01 X14.6518Y22.1250
g01 X12.3686Y22.1007
g01 X11.7500Y21.8096
g01 X11.7500Y21.2257
g01 X11.0743Y20.5500
g01 X8.5257Y20.5500
G00 Z1.0000
G00 X8.6500Y23.4000
G01 Z-0.1400
G01 X8.1500Y23.9000
G01 X8.1500Y24.6000
G01 X8.6500Y25.1000
G01 X10.0500Y25.1000
G01 X17.8750Y32.2750
G01 X17.9000Y32.2750
G01 X17.9250Y32.3000
G01 X18.0250Y32.3250
G01 X18.1250Y32.3750
G01 X41.6750Y32.3750
G01 X41.7500Y32.3500
G01 X41.8000Y32.3250
G01 X41.8750Y32.3000
G01 X41.9250Y32.2500
G01 X41.9750Y32.2000
G01 X42.0000Y32.1250
G01 X42.0500Y32.0750
G01 X42.0500Y31.9250
G01 X42.0000Y27.9750
G01 X42.4250Y27.9750
G01 X42.4250Y25.8750
G01 X41.9500Y25.8750
G01 X41.9500Y24.4750
G01 X44.1000Y24.4500
G01 X44.4750Y24.8250
G01 X46.7750Y24.8250
G01 X47.2750Y24.3250
G01 X47.2750Y23.6250
G01 X46.7750Y23.1250
G01 X44.4750Y23.1250
G01 X44.0500Y23.5500
G01 X41.4750Y23.5750
G01 X38.5500Y23.5750
G01 X38.5250Y14.7750
G01 X38.5000Y14.7000
G01 X38.5000Y14.6500
G01 X38.4500Y14.5750
G01 X38.4250Y14.5250
G01 X38.3750Y14.4750
G01 X38.3250Y14.4250
G01 X38.2750Y14.4000
G01 X38.2000Y14.3500
G01 X38.1500Y14.3500
G01 X38.0750Y14.3250
G01 X33.9500Y14.3250
G01 X33.8250Y14.3750
G01 X33.7000Y14.4250
G01 X33.6750Y14.4250
G01 X33.6000Y14.5500
G01 X33.5250Y14.6500
G01 X32.8500Y17.0750
G01 X32.7000Y17.1000
G01 X32.4000Y17.3000
G01 X32.1750Y17.6250
G01 X32.1000Y17.9750
G01 X32.1250Y18.0500
G01 X31.3250Y18.5750
G01 X27.6250Y18.6000
G01 X27.4000Y18.6750
G01 X27.1750Y18.6750
G01 X27.1750Y19.4250
G01 X27.4000Y19.4250
G01 X27.6250Y19.5000
G01 X31.4500Y19.4750
G01 X31.5750Y19.4250
G01 X31.7000Y19.4000
G01 X32.6250Y18.8000
G01 X32.7000Y18.8500
G01 X33.0500Y18.9250
G01 X33.4250Y18.8500
G01 X33.7250Y18.6500
G01 X33.9500Y18.3500
G01 X34.0000Y17.9750
G01 X33.9500Y17.6250
G01 X33.7250Y17.3000
G01 X34.3000Y15.2250
G01 X37.6250Y15.2250
G01 X37.6500Y24.0250
G01 X37.6750Y24.1000
G01 X37.6750Y24.1500
G01 X37.7250Y24.2250
G01 X37.7500Y24.2750
G01 X37.8000Y24.3250
G01 X37.8250Y24.3750
G01 X37.9000Y24.4000
G01 X37.9750Y24.4500
G01 X38.0250Y24.4500
G01 X38.1000Y24.4750
G01 X41.0500Y24.4750
G01 X41.0500Y25.8750
G01 X40.7250Y25.8750
G01 X40.7250Y27.9750
G01 X41.1000Y27.9750
G01 X41.1500Y31.4750
G01 X18.3500Y31.5000
G01 X11.1500Y24.8750
G01 X11.4500Y24.6000
G01 X11.4500Y23.9000
G01 X10.9500Y23.4000
G01 X8.6500Y23.4000
g00 Z1.0000
g00 X8.6086Y23.3000
g01 Z-0.1400
g01 X8.0500Y23.8586
g01 X8.0500Y24.6414
g01 X8.6086Y25.2000
g01 X10.0111Y25.2000
g01 X17.8361Y32.3750
g01 X17.8739Y32.3903
g01 X17.9901Y32.4194
g01 X18.1014Y32.4750
g01 X41.6912Y32.4750
g01 X41.9290Y32.3874
g01 X42.0624Y32.2540
g01 X42.0874Y32.1790
g01 X42.1500Y32.1164
g01 X42.1500Y31.9243
g01 X42.1013Y28.0750
g01 X42.5250Y28.0750
g01 X42.5250Y25.7750
g01 X42.0500Y25.7750
g01 X42.0500Y24.5738
g01 X44.0591Y24.5505
g01 X44.4336Y24.9250
g01 X46.8164Y24.9250
g01 X47.3750Y24.3664
g01 X47.3750Y23.5836
g01 X46.8164Y23.0250
g01 X44.4336Y23.0250
g01 X44.0082Y23.4504
g01 X41.4746Y23.4750
g01 X38.6497Y23.4750
g01 X38.6250Y14.7586
g01 X38.6000Y14.6838
g01 X38.6000Y14.6197
g01 X38.5072Y14.4658
g01 X38.3842Y14.3428
g01 X38.2303Y14.2500
g01 X38.1662Y14.2500
g01 X38.0912Y14.2250
g01 X33.9307Y14.2250
g01 X33.6807Y14.3250
g01 X33.6184Y14.3250
g01 X33.5169Y14.4941
g01 X33.4337Y14.6051
g01 X32.7707Y16.9868
g01 X32.6624Y17.0049
g01 X32.3287Y17.2274
g01 X32.0814Y17.5845
g01 X31.9965Y17.9807
g01 X32.0058Y18.0086
g01 X31.2948Y18.4752
g01 X27.6085Y18.5001
g01 X27.3838Y18.5750
g01 X27.0750Y18.5750
g01 X27.0750Y19.5250
g01 X27.3838Y19.5250
g01 X27.6091Y19.6001
g01 X31.4696Y19.5749
g01 X31.6036Y19.5213
g01 X31.7384Y19.4943
g01 X32.6243Y18.9197
g01 X32.6604Y18.9438
g01 X33.0493Y19.0271
g01 X33.4640Y18.9442
g01 X33.7947Y18.7237
g01 X34.0457Y18.3891
g01 X34.1010Y17.9745
g01 X34.0457Y17.5875
g01 X33.8339Y17.2816
g01 X34.3761Y15.3250
g01 X37.5253Y15.3250
g01 X37.5501Y24.0414
g01 X37.5750Y24.1162
g01 X37.5750Y24.1803
g01 X37.6678Y24.3342
g01 X37.7178Y24.3842
g01 X37.7541Y24.4568
g01 X37.8557Y24.4906
g01 X37.9447Y24.5500
g01 X38.0088Y24.5500
g01 X38.0838Y24.5750
g01 X40.9500Y24.5750
g01 X40.9500Y25.7750
g01 X40.6250Y25.7750
g01 X40.6250Y28.0750
g01 X41.0014Y28.0750
g01 X41.0486Y31.3751
g01 X18.3890Y31.4000
g01 X11.2978Y24.8751
g01 X11.5500Y24.6440
g01 X11.5500Y23.8586
g01 X10.9914Y23.3000
g01 X8.6086Y23.3000
g00 Z1.0000
g00 X8.5672Y23.2000
g01 Z-0.1400
g01 X7.9500Y23.8172
g01 X7.9500Y24.6828
g01 X8.5672Y25.3000
g01 X9.9722Y25.3000
g01 X17.7972Y32.4750
g01 X17.8228Y32.4806
g01 X17.9552Y32.5137
g01 X18.0778Y32.5750
g01 X41.7075Y32.5750
g01 X41.9830Y32.4748
g01 X42.1498Y32.3080
g01 X42.1748Y32.2330
g01 X42.2500Y32.1578
g01 X42.2500Y31.9237
g01 X42.2026Y28.1750
g01 X42.6250Y28.1750
g01 X42.6250Y25.6750
g01 X42.1500Y25.6750
g01 X42.1500Y24.6727
g01 X44.0181Y24.6510
g01 X44.3922Y25.0250
g01 X46.8579Y25.0250
g01 X47.4750Y24.4078
g01 X47.4750Y23.5422
g01 X46.8579Y22.9250
g01 X44.3922Y22.9250
g01 X43.9664Y23.3508
g01 X41.4740Y23.3750
g01 X38.7494Y23.3750
g01 X38.7249Y14.7423
g01 X38.7000Y14.6675
g01 X38.7000Y14.5894
g01 X38.5894Y14.4065
g01 X38.4435Y14.2606
g01 X38.2606Y14.1500
g01 X38.1825Y14.1500
g01 X38.1075Y14.1250
g01 X33.9115Y14.1250
g01 X33.6615Y14.2250
g01 X33.5618Y14.2250
g01 X33.4338Y14.4382
g01 X33.3424Y14.5601
g01 X32.6915Y16.8987
g01 X32.6248Y16.9098
g01 X32.2573Y17.1548
g01 X31.9878Y17.5440
g01 X31.8930Y17.9865
g01 X31.8866Y17.9672
g01 X31.2646Y18.3754
g01 X27.5919Y18.4002
g01 X27.3676Y18.4750
g01 X26.9750Y18.4750
g01 X26.9750Y19.6250
g01 X27.3675Y19.6250
g01 X27.5932Y19.7002
g01 X31.4892Y19.6748
g01 X31.6322Y19.6175
g01 X31.7767Y19.5886
g01 X32.6235Y19.0394
g01 X32.6208Y19.0376
g01 X33.0486Y19.1292
g01 X33.5030Y19.0384
g01 X33.8644Y18.7974
g01 X34.1413Y18.4282
g01 X34.2019Y17.9741
g01 X34.1413Y17.5500
g01 X33.9428Y17.2632
g01 X34.4521Y15.4250
g01 X37.4256Y15.4250
g01 X37.4501Y24.0577
g01 X37.4750Y24.1325
g01 X37.4750Y24.2106
g01 X37.5856Y24.3935
g01 X37.6356Y24.4435
g01 X37.6832Y24.5385
g01 X37.8113Y24.5813
g01 X37.9144Y24.6500
g01 X37.9926Y24.6500
g01 X38.0676Y24.6750
g01 X40.8500Y24.6750
g01 X40.8500Y25.6750
g01 X40.5250Y25.6750
g01 X40.5250Y28.1750
g01 X40.9028Y28.1750
g01 X40.9471Y31.2752
g01 X18.4279Y31.2999
g01 X11.4457Y24.8753
g01 X11.6500Y24.6880
g01 X11.6500Y23.8172
g01 X11.0328Y23.2000
g01 X8.5672Y23.2000
g00 Z1.0000
g00 X8.5257Y23.1000
g01 Z-0.1400
g01 X7.8500Y23.7757
g01 X7.8500Y24.7243
g01 X8.5257Y25.4000
g01 X9.9333Y25.4000
g01 X17.7583Y32.5750
g01 X17.7716Y32.5709
g01 X17.9203Y32.6081
g01 X18.0542Y32.6750
g01 X41.7237Y32.6750
g01 X42.0371Y32.5622
g01 X42.2372Y32.3621
g01 X42.2622Y32.2871
g01 X42.3500Y32.1993
g01 X42.3500Y31.9230
g01 X42.3038Y28.2750
g01 X42.7250Y28.2750
g01 X42.7250Y25.5750
g01 X42.2500Y25.5750
g01 X42.2500Y24.7715
g01 X43.9772Y24.7515
g01 X44.3507Y25.1250
g01 X46.8993Y25.1250
g01 X47.5750Y24.4493
g01 X47.5750Y23.5007
g01 X46.8993Y22.8250
g01 X44.3507Y22.8250
g01 X43.9245Y23.2512
g01 X41.4735Y23.2750
g01 X38.8492Y23.2750
g01 X38.8249Y14.7259
g01 X38.8000Y14.6513
g01 X38.8000Y14.5592
g01 X38.6716Y14.3473
g01 X38.5027Y14.1785
g01 X38.2908Y14.0500
g01 X38.1987Y14.0500
g01 X38.1237Y14.0250
g01 X33.8922Y14.0250
g01 X33.6422Y14.1250
g01 X33.5051Y14.1250
g01 X33.3507Y14.3824
g01 X33.2511Y14.5152
g01 X32.6122Y16.8105
g01 X32.5872Y16.8147
g01 X32.1859Y17.0822
g01 X31.8942Y17.5035
g01 X31.7895Y17.9922
g01 X31.7674Y17.9259
g01 X31.2344Y18.2756
g01 X27.5753Y18.3003
g01 X27.3513Y18.3750
g01 X26.8750Y18.3750
g01 X26.8750Y19.7250
g01 X27.3513Y19.7250
g01 X27.5773Y19.8003
g01 X31.5087Y19.7746
g01 X31.6608Y19.7138
g01 X31.8151Y19.6829
g01 X32.6227Y19.1591
g01 X32.5812Y19.1314
g01 X33.0479Y19.2314
g01 X33.5420Y19.1325
g01 X33.9342Y18.8711
g01 X34.2370Y18.4673
g01 X34.3028Y17.9736
g01 X34.2370Y17.5125
g01 X34.0516Y17.2447
g01 X34.5282Y15.5250
g01 X37.3259Y15.5250
g01 X37.3501Y24.0741
g01 X37.3750Y24.1487
g01 X37.3750Y24.2408
g01 X37.5034Y24.4527
g01 X37.5534Y24.5027
g01 X37.6123Y24.6203
g01 X37.7670Y24.6719
g01 X37.8842Y24.7500
g01 X37.9763Y24.7500
g01 X38.0513Y24.7750
g01 X40.7500Y24.7750
g01 X40.7500Y25.5750
g01 X40.4250Y25.5750
g01 X40.4250Y28.2750
g01 X40.8043Y28.2750
g01 X40.8457Y31.1753
g01 X18.4669Y31.1999
g01 X11.5935Y24.8754
g01 X11.7500Y24.7320
g01 X11.7500Y23.7757
g01 X11.0743Y23.1000
g01 X8.5257Y23.1000
G00 Z1.0000
G00 X13.3750Y23.7000
G01 Z-0.1400
G01 X13.3750Y24.6000
G01 X15.8750Y24.6000
G01 X15.8750Y23.7000
G01 X13.3750Y23.7000
g00 Z1.0000
g00 X13.2750Y23.6000
g01 Z-0.1400
g01 X13.2750Y24.7000
g01 X15.9750Y24.7000
g01 X15.9750Y23.6000
g01 X13.2750Y23.6000
g00 Z1.0000
g00 X13.1750Y23.5000
g01 Z-0.1400
g01 X13.1750Y24.8000
g01 X16.0750Y24.8000
g01 X16.0750Y23.5000
g01 X13.1750Y23.5000
g00 Z1.0000
g00 X13.0750Y23.4000
g01 Z-0.1400
g01 X13.0750Y24.9000
g01 X16.1750Y24.9000
g01 X16.1750Y23.4000
g01 X13.0750Y23.4000
G00 Z1.0000
G00 X13.3750Y22.0500
G01 Z-0.1400
G01 X15.8750Y22.0500
G01 X15.8750Y21.1500
G01 X13.3750Y21.1500
G01 X13.3750Y22.0500
g00 Z1.0000
g00 X13.2750Y21.0500
g01 Z-0.1400
g01 X13.2750Y22.1500
g01 X15.9750Y22.1500
g01 X15.9750Y21.0500
g01 X13.2750Y21.0500
g00 Z1.0000
g00 X13.1750Y20.9500
g01 Z-0.1400
g01 X13.1750Y22.2500
g01 X16.0750Y22.2500
g01 X16.0750Y20.9500
g01 X13.1750Y20.9500
g00 Z1.0000
g00 X13.0750Y20.8500
g01 Z-0.1400
g01 X13.0750Y22.3500
g01 X16.1750Y22.3500
g01 X16.1750Y20.8500
g01 X13.0750Y20.8500
G00 Z1.0000
G00 X16.4500Y22.6500
G01 Z-0.1400
G01 X16.4000Y22.9250
G01 X16.4500Y23.0000
G01 X16.4500Y23.0250
G01 X16.4750Y23.0500
G01 X16.4750Y23.0750
G01 X16.4500Y28.5500
G01 X16.4750Y28.6000
G01 X16.4500Y28.6500
G01 X16.5000Y28.7250
G01 X16.5250Y28.8000
G01 X16.5750Y28.8500
G01 X16.6000Y28.8750
G01 X18.7000Y30.8250
G01 X18.7250Y30.8500
G01 X18.7500Y30.8750
G01 X18.8500Y30.9000
G01 X18.9500Y30.9500
G01 X38.7500Y30.9500
G01 X38.8250Y30.9250
G01 X38.9000Y30.9250
G01 X38.9500Y30.8750
G01 X39.0250Y30.8750
G01 X39.0750Y30.8000
G01 X39.1250Y30.7500
G01 X39.1500Y30.7000
G01 X39.2000Y30.6500
G01 X39.2000Y30.5000
G01 X39.1750Y27.9750
G01 X39.6250Y27.9750
G01 X39.6250Y25.8750
G01 X39.1250Y25.8750
G01 X39.1250Y25.6250
G01 X39.1000Y25.5000
G01 X39.0500Y25.3750
G01 X39.0500Y25.3500
G01 X38.9500Y25.2750
G01 X38.8500Y25.2000
G01 X36.2500Y24.2250
G01 X36.9000Y22.2000
G01 X36.9000Y22.1250
G01 X36.9250Y22.0500
G01 X36.9000Y18.7250
G01 X36.8750Y18.6750
G01 X36.8750Y18.6000
G01 X36.5000Y17.3750
G01 X36.7000Y17.0750
G01 X36.7750Y16.7250
G01 X36.7000Y16.3500
G01 X36.5000Y16.0500
G01 X36.2000Y15.8500
G01 X35.8250Y15.7750
G01 X35.4750Y15.8500
G01 X35.1500Y16.0500
G01 X34.9500Y16.3500
G01 X34.8750Y16.7250
G01 X34.9500Y17.0750
G01 X35.1500Y17.4000
G01 X35.4750Y17.6000
G01 X35.6500Y17.6250
G01 X36.0000Y18.8000
G01 X36.0250Y22.0000
G01 X35.3750Y24.0250
G01 X29.2750Y23.7500
G01 X29.2250Y23.7500
G01 X27.6500Y23.6750
G01 X27.3750Y23.7500
G01 X27.1750Y23.7500
G01 X27.1750Y24.5000
G01 X27.4000Y24.5000
G01 X27.6000Y24.5750
G01 X35.6000Y24.9500
G01 X38.0750Y25.8750
G01 X37.9250Y25.8750
G01 X37.9250Y27.9750
G01 X38.2750Y27.9750
G01 X38.3000Y30.0500
G01 X19.1750Y30.0500
G01 X17.3500Y28.3500
G01 X17.3750Y23.3250
G01 X20.8750Y23.3250
G01 X20.8750Y22.4250
G01 X17.3750Y22.4250
G01 X17.4000Y20.8000
G01 X20.8750Y20.8000
G01 X20.8750Y19.9000
G01 X16.9500Y19.9000
G01 X16.8750Y19.9250
G01 X16.8250Y19.9250
G01 X16.7500Y19.9750
G01 X16.6750Y20.0000
G01 X16.6500Y20.0500
G01 X16.6000Y20.0750
G01 X16.5750Y20.1500
G01 X16.5250Y20.2250
G01 X16.5250Y20.2750
G01 X16.5000Y20.3500
G01 X16.4750Y22.6000
G01 X16.4500Y22.6500
g00 Z1.0000
g00 X16.6041Y19.9182
g01 Z-0.1400
g01 X16.5755Y19.9755
g01 X16.5182Y20.0041
g01 X16.4844Y20.1057
g01 X16.4250Y20.1947
g01 X16.4250Y20.2588
g01 X16.4002Y20.3332
g01 X16.3753Y22.5759
g01 X16.3542Y22.6181
g01 X16.2944Y22.9469
g01 X16.3500Y23.0303
g01 X16.3499Y28.5734
g01 X16.3632Y28.6000
g01 X16.3346Y28.6572
g01 X16.4094Y28.7693
g01 X16.4376Y28.8540
g01 X16.5306Y28.9470
g01 X18.6306Y30.8970
g01 X18.6989Y30.9653
g01 X18.8151Y30.9944
g01 X18.9264Y31.0500
g01 X38.7662Y31.0500
g01 X38.8412Y31.0250
g01 X38.9414Y31.0250
g01 X38.9914Y30.9750
g01 X39.0785Y30.9750
g01 X39.1527Y30.8637
g01 X39.2072Y30.8092
g01 X39.2322Y30.7592
g01 X39.3000Y30.6914
g01 X39.3000Y30.4994
g01 X39.2760Y28.0750
g01 X39.7250Y28.0750
g01 X39.7250Y25.7750
g01 X39.2250Y25.7750
g01 X39.2250Y25.6151
g01 X39.1963Y25.4714
g01 X39.1500Y25.3557
g01 X39.1500Y25.3000
g01 X38.8985Y25.1114
g01 X36.3743Y24.1648
g01 X37.0000Y22.2157
g01 X37.0000Y22.1412
g01 X37.0251Y22.0659
g01 X36.9998Y18.7010
g01 X36.9750Y18.6514
g01 X36.9750Y18.5850
g01 X36.6095Y17.3910
g01 X36.7938Y17.1146
g01 X36.8771Y16.7257
g01 X36.7942Y16.3110
g01 X36.5721Y15.9779
g01 X36.2390Y15.7558
g01 X35.8243Y15.6729
g01 X35.4372Y15.7558
g01 X35.0789Y15.9763
g01 X34.8558Y16.3110
g01 X34.7729Y16.7257
g01 X34.8558Y17.1128
g01 X35.0773Y17.4727
g01 X35.4403Y17.6961
g01 X35.5725Y17.7149
g01 X35.9001Y18.8150
g01 X35.9249Y21.9847
g01 X35.3032Y23.9217
g01 X29.2773Y23.6500
g01 X29.2274Y23.6500
g01 X27.6390Y23.5744
g01 X27.3616Y23.6500
g01 X27.0750Y23.6500
g01 X27.0750Y24.6000
g01 X27.3819Y24.6000
g01 X27.5796Y24.6742
g01 X35.5797Y25.0492
g01 X37.5218Y25.7750
g01 X37.8250Y25.7750
g01 X37.8250Y28.0750
g01 X38.1762Y28.0750
g01 X38.1988Y29.9500
g01 X19.2144Y29.9500
g01 X17.4502Y28.3067
g01 X17.4745Y23.4250
g01 X20.9750Y23.4250
g01 X20.9750Y22.3250
g01 X17.4766Y22.3250
g01 X17.4985Y20.9000
g01 X20.9750Y20.9000
g01 X20.9750Y19.8000
g01 X16.9338Y19.8000
g01 X16.8588Y19.8250
g01 X16.7947Y19.8250
g01 X16.7057Y19.8844
g01 X16.6041Y19.9182
g00 Z1.0000
g00 X16.5332Y19.8365
g01 Z-0.1400
g01 X16.5009Y19.9009
g01 X16.4365Y19.9332
g01 X16.3937Y20.0614
g01 X16.3250Y20.1645
g01 X16.3250Y20.2426
g01 X16.3004Y20.3165
g01 X16.2755Y22.5517
g01 X16.2583Y22.5861
g01 X16.1888Y22.9687
g01 X16.2500Y23.0606
g01 X16.2498Y28.5968
g01 X16.2514Y28.6000
g01 X16.2192Y28.6644
g01 X16.3187Y28.8137
g01 X16.3502Y28.9080
g01 X16.4612Y29.0190
g01 X18.5612Y30.9690
g01 X18.6478Y31.0556
g01 X18.7802Y31.0887
g01 X18.9028Y31.1500
g01 X38.7825Y31.1500
g01 X38.8575Y31.1250
g01 X38.9829Y31.1250
g01 X39.0328Y31.0750
g01 X39.1320Y31.0750
g01 X39.2304Y30.9274
g01 X39.2894Y30.8685
g01 X39.3144Y30.8185
g01 X39.4000Y30.7328
g01 X39.4000Y30.4992
g01 X39.3770Y28.1750
g01 X39.8250Y28.1750
g01 X39.8250Y25.6750
g01 X39.3250Y25.6750
g01 X39.3250Y25.6052
g01 X39.2925Y25.4428
g01 X39.2500Y25.3365
g01 X39.2500Y25.2500
g01 X38.9471Y25.0228
g01 X36.4987Y24.1047
g01 X37.1000Y22.2313
g01 X37.1000Y22.1575
g01 X37.1252Y22.0817
g01 X37.0997Y18.6771
g01 X37.0750Y18.6278
g01 X37.0750Y18.5701
g01 X36.7190Y17.4071
g01 X36.8876Y17.1542
g01 X36.9792Y16.7264
g01 X36.8884Y16.2720
g01 X36.6442Y15.9058
g01 X36.2780Y15.6616
g01 X35.8236Y15.5708
g01 X35.3995Y15.6617
g01 X35.0079Y15.9026
g01 X34.7616Y16.2720
g01 X34.6708Y16.7264
g01 X34.7617Y17.1505
g01 X35.0046Y17.5454
g01 X35.4056Y17.7921
g01 X35.4949Y17.8049
g01 X35.8002Y18.8299
g01 X35.8248Y21.9695
g01 X35.2313Y23.8183
g01 X29.2795Y23.5500
g01 X29.2298Y23.5500
g01 X27.6279Y23.4737
g01 X27.3482Y23.5500
g01 X26.9750Y23.5500
g01 X26.9750Y24.7000
g01 X27.3637Y24.7000
g01 X27.5592Y24.7733
g01 X35.5593Y25.1483
g01 X36.9686Y25.6750
g01 X37.7250Y25.6750
g01 X37.7250Y28.1750
g01 X38.0774Y28.1750
g01 X38.0976Y29.8500
g01 X19.2537Y29.8500
g01 X17.5504Y28.2634
g01 X17.5740Y23.5250
g01 X21.0750Y23.5250
g01 X21.0750Y22.2250
g01 X17.5781Y22.2250
g01 X17.5970Y21.0000
g01 X21.0750Y21.0000
g01 X21.0750Y19.7000
g01 X16.9176Y19.7000
g01 X16.8426Y19.7250
g01 X16.7645Y19.7250
g01 X16.6614Y19.7937
g01 X16.5332Y19.8365
g00 Z1.0000
g00 X16.4622Y19.7547
g01 Z-0.1400
g01 X16.4264Y19.8264
g01 X16.3547Y19.8623
g01 X16.3031Y20.0170
g01 X16.2250Y20.1342
g01 X16.2250Y20.2263
g01 X16.2005Y20.2997
g01 X16.1758Y22.5276
g01 X16.1625Y22.5542
g01 X16.0832Y22.9906
g01 X16.1500Y23.0908
g01 X16.1497Y28.6202
g01 X16.1396Y28.6000
g01 X16.1038Y28.6716
g01 X16.2281Y28.8580
g01 X16.2628Y28.9621
g01 X16.3918Y29.0911
g01 X18.4918Y31.0411
g01 X18.5966Y31.1459
g01 X18.7453Y31.1831
g01 X18.8792Y31.2500
g01 X38.7987Y31.2500
g01 X38.8737Y31.2250
g01 X39.0243Y31.2250
g01 X39.0743Y31.1750
g01 X39.1856Y31.1750
g01 X39.3081Y30.9911
g01 X39.3716Y30.9277
g01 X39.3966Y30.8777
g01 X39.5000Y30.7743
g01 X39.5000Y30.4986
g01 X39.4780Y28.2750
g01 X39.9250Y28.2750
g01 X39.9250Y25.5750
g01 X39.4250Y25.5750
g01 X39.4250Y25.5953
g01 X39.3888Y25.4142
g01 X39.3500Y25.3172
g01 X39.3500Y25.2000
g01 X38.9956Y24.9342
g01 X36.6230Y24.0445
g01 X37.2000Y22.2470
g01 X37.2000Y22.1737
g01 X37.2254Y22.0976
g01 X37.1995Y18.6531
g01 X37.1750Y18.6042
g01 X37.1750Y18.5551
g01 X36.8285Y17.4231
g01 X36.9814Y17.1938
g01 X37.0814Y16.7271
g01 X36.9825Y16.2330
g01 X36.7163Y15.8337
g01 X36.3170Y15.5675
g01 X35.8229Y15.4686
g01 X35.3617Y15.5675
g01 X34.9368Y15.8289
g01 X34.6675Y16.2330
g01 X34.5686Y16.7271
g01 X34.6675Y17.1883
g01 X34.9319Y17.6181
g01 X35.3709Y17.8882
g01 X35.4173Y17.8948
g01 X35.7003Y18.8449
g01 X35.7246Y21.9542
g01 X35.1594Y23.7150
g01 X29.2818Y23.4500
g01 X29.2321Y23.4500
g01 X27.6169Y23.3731
g01 X27.3348Y23.4500
g01 X26.8750Y23.4500
g01 X26.8750Y24.8000
g01 X27.3456Y24.8000
g01 X27.5388Y24.8725
g01 X35.5390Y25.2475
g01 X36.4154Y25.5750
g01 X37.6250Y25.5750
g01 X37.6250Y28.2750
g01 X37.9786Y28.2750
g01 X37.9964Y29.7500
g01 X19.2931Y29.7500
g01 X17.6507Y28.2201
g01 X17.6735Y23.6250
g01 X21.1750Y23.6250
g01 X21.1750Y22.1250
g01 X17.6797Y22.1250
g01 X17.6954Y21.1000
g01 X21.1750Y21.1000
g01 X21.1750Y19.6000
g01 X16.9013Y19.6000
g01 X16.8263Y19.6250
g01 X16.7342Y19.6250
g01 X16.6170Y19.7031
g01 X16.4622Y19.7547
G00 Z1.0000
G00 X18.3750Y22.0500
G01 Z-0.1400
G01 X20.8750Y22.0500
G01 X20.8750Y21.9500
G01 X21.3750Y21.9500
G01 X21.3750Y22.8500
G01 X21.4000Y22.9000
G01 X21.4000Y22.9500
G01 X21.4250Y23.0000
G01 X21.4500Y23.0500
G01 X21.4750Y23.0750
G01 X21.5250Y23.1250
G01 X21.5750Y23.1500
G01 X21.6250Y23.1750
G01 X21.6750Y23.1750
G01 X21.7250Y23.2000
G01 X22.6500Y23.2000
G01 X22.6500Y23.2250
G01 X24.7500Y23.2250
G01 X24.7500Y22.4750
G01 X22.6500Y22.4750
G01 X22.6500Y22.5000
G01 X22.0750Y22.5000
G01 X22.0750Y21.6000
G01 X22.0500Y21.5500
G01 X22.0500Y21.5000
G01 X22.0250Y21.4500
G01 X22.0000Y21.4000
G01 X21.9500Y21.3750
G01 X21.9250Y21.3250
G01 X21.8750Y21.3000
G01 X21.8250Y21.2750
G01 X21.7750Y21.2750
G01 X21.7250Y21.2500
G01 X20.8750Y21.2500
G01 X20.8750Y21.1500
G01 X18.3750Y21.1500
G01 X18.3750Y22.0500
g00 Z1.0000
g00 X18.2750Y21.0500
g01 Z-0.1400
g01 X18.2750Y22.1500
g01 X20.9750Y22.1500
g01 X20.9750Y22.0500
g01 X21.2750Y22.0500
g01 X21.2750Y22.8736
g01 X21.3000Y22.9236
g01 X21.3000Y22.9736
g01 X21.4658Y23.2072
g01 X21.6014Y23.2750
g01 X21.6514Y23.2750
g01 X21.7014Y23.3000
g01 X22.5500Y23.3000
g01 X22.5500Y23.3250
g01 X24.8500Y23.3250
g01 X24.8500Y22.3750
g01 X22.5500Y22.3750
g01 X22.5500Y22.4000
g01 X22.1750Y22.4000
g01 X22.1750Y21.5764
g01 X22.1500Y21.5264
g01 X22.1500Y21.4764
g01 X22.0745Y21.3255
g01 X22.0245Y21.3005
g01 X21.9995Y21.2505
g01 X21.8486Y21.1750
g01 X21.7986Y21.1750
g01 X21.7486Y21.1500
g01 X20.9750Y21.1500
g01 X20.9750Y21.0500
g01 X18.2750Y21.0500
g00 Z1.0000
g00 X18.1750Y20.9500
g01 Z-0.1400
g01 X18.1750Y22.2500
g01 X21.0750Y22.2500
g01 X21.0750Y22.1500
g01 X21.1750Y22.1500
g01 X21.1750Y22.8972
g01 X21.2000Y22.9472
g01 X21.2000Y22.9972
g01 X21.4065Y23.2894
g01 X21.5778Y23.3750
g01 X21.6278Y23.3750
g01 X21.6778Y23.4000
g01 X22.4500Y23.4000
g01 X22.4500Y23.4250
g01 X24.9500Y23.4250
g01 X24.9500Y22.2750
g01 X22.4500Y22.2750
g01 X22.4500Y22.3000
g01 X22.2750Y22.3000
g01 X22.2750Y21.5528
g01 X22.2500Y21.5028
g01 X22.2500Y21.4528
g01 X22.1491Y21.2509
g01 X22.0991Y21.2259
g01 X22.0741Y21.1759
g01 X21.8722Y21.0750
g01 X21.8222Y21.0750
g01 X21.7722Y21.0500
g01 X21.0750Y21.0500
g01 X21.0750Y20.9500
g01 X18.1750Y20.9500
g00 Z1.0000
g00 X18.0750Y20.8500
g01 Z-0.1400
g01 X18.0750Y22.3500
g01 X21.1750Y22.3500
g01 X21.1750Y22.2500
g01 X21.0750Y22.2500
g01 X21.0750Y22.9208
g01 X21.1000Y22.9708
g01 X21.1000Y23.0208
g01 X21.3473Y23.3716
g01 X21.5542Y23.4750
g01 X21.6042Y23.4750
g01 X21.6542Y23.5000
g01 X22.3500Y23.5000
g01 X22.3500Y23.5250
g01 X25.0500Y23.5250
g01 X25.0500Y22.1750
g01 X22.3500Y22.1750
g01 X22.3500Y22.2000
g01 X22.3750Y22.2000
g01 X22.3750Y21.5292
g01 X22.3500Y21.4792
g01 X22.3500Y21.4292
g01 X22.2236Y21.1764
g01 X22.1736Y21.1514
g01 X22.1486Y21.1014
g01 X21.8958Y20.9750
g01 X21.8458Y20.9750
g01 X21.7958Y20.9500
g01 X21.1750Y20.9500
g01 X21.1750Y20.8500
g01 X18.0750Y20.8500
G00 Z1.0000
G00 X18.3750Y23.7000
G01 Z-0.1400
G01 X18.3750Y24.6000
G01 X20.8750Y24.6000
G01 X20.8750Y24.5750
G01 X23.7000Y24.5500
G01 X23.9250Y24.4750
G01 X24.7500Y24.4750
G01 X24.7500Y23.7250
G01 X23.9500Y23.7250
G01 X23.7000Y23.6500
G01 X19.6250Y23.7000
G01 X18.3750Y23.7000
g00 Z1.0000
g00 X18.2750Y23.6000
g01 Z-0.1400
g01 X18.2750Y24.7000
g01 X20.9750Y24.7000
g01 X20.9750Y24.6741
g01 X23.7167Y24.6499
g01 X23.9412Y24.5750
g01 X24.8500Y24.5750
g01 X24.8500Y23.6250
g01 X23.9647Y23.6250
g01 X23.7141Y23.5498
g01 X19.6244Y23.6000
g01 X18.2750Y23.6000
g00 Z1.0000
g00 X18.1750Y23.5000
g01 Z-0.1400
g01 X18.1750Y24.8000
g01 X21.0750Y24.8000
g01 X21.0750Y24.7732
g01 X23.7333Y24.7497
g01 X23.9575Y24.6750
g01 X24.9500Y24.6750
g01 X24.9500Y23.5250
g01 X23.9794Y23.5250
g01 X23.7282Y23.4496
g01 X19.6238Y23.5000
g01 X18.1750Y23.5000
g00 Z1.0000
g00 X18.0750Y23.4000
g01 Z-0.1400
g01 X18.0750Y24.9000
g01 X21.1750Y24.9000
g01 X21.1750Y24.8724
g01 X23.7500Y24.8496
g01 X23.9737Y24.7750
g01 X25.0500Y24.7750
g01 X25.0500Y23.4250
g01 X23.9940Y23.4250
g01 X23.7422Y23.3495
g01 X19.6230Y23.4000
g01 X18.0750Y23.4000
G00 Z1.0000
G00 X22.6500Y25.0250
G01 Z-0.1400
G01 X22.6500Y25.7750
G01 X24.7500Y25.7750
G01 X24.7500Y25.0250
G01 X22.6500Y25.0250
g00 Z1.0000
g00 X22.5500Y24.9250
g01 Z-0.1400
g01 X22.5500Y25.8750
g01 X24.8500Y25.8750
g01 X24.8500Y24.9250
g01 X22.5500Y24.9250
g00 Z1.0000
g00 X22.4500Y24.8250
g01 Z-0.1400
g01 X22.4500Y25.9750
g01 X24.9500Y25.9750
g01 X24.9500Y24.8250
g01 X22.4500Y24.8250
g00 Z1.0000
g00 X22.3500Y24.7250
g01 Z-0.1400
g01 X22.3500Y26.0750
g01 X25.0500Y26.0750
g01 X25.0500Y24.7250
g01 X22.3500Y24.7250
G00 Z1.0000
G00 X22.6500Y26.2750
G01 Z-0.1400
G01 X22.6500Y27.0250
G01 X24.7500Y27.0250
G01 X24.7500Y26.2750
G01 X22.6500Y26.2750
g00 Z1.0000
g00 X22.5500Y26.1750
g01 Z-0.1400
g01 X22.5500Y27.1250
g01 X24.8500Y27.1250
g01 X24.8500Y26.1750
g01 X22.5500Y26.1750
g00 Z1.0000
g00 X22.4500Y26.0750
g01 Z-0.1400
g01 X22.4500Y27.2250
g01 X24.9500Y27.2250
g01 X24.9500Y26.0750
g01 X22.4500Y26.0750
g00 Z1.0000
g00 X22.3500Y25.9750
g01 Z-0.1400
g01 X22.3500Y27.3250
g01 X25.0500Y27.3250
g01 X25.0500Y25.9750
g01 X22.3500Y25.9750
G00 Z1.0000
G00 X22.6500Y21.9250
G01 Z-0.1400
G01 X24.7500Y21.9250
G01 X24.7500Y21.1750
G01 X22.6500Y21.1750
G01 X22.6500Y21.9250
g00 Z1.0000
g00 X22.5500Y21.0750
g01 Z-0.1400
g01 X22.5500Y22.0250
g01 X24.8500Y22.0250
g01 X24.8500Y21.0750
g01 X22.5500Y21.0750
g00 Z1.0000
g00 X22.4500Y20.9750
g01 Z-0.1400
g01 X22.4500Y22.1250
g01 X24.9500Y22.1250
g01 X24.9500Y20.9750
g01 X22.4500Y20.9750
g00 Z1.0000
g00 X22.3500Y20.8750
g01 Z-0.1400
g01 X22.3500Y22.2250
g01 X25.0500Y22.2250
g01 X25.0500Y20.8750
g01 X22.3500Y20.8750
G00 Z1.0000
G00 X22.6500Y20.6250
G01 Z-0.1400
G01 X24.7500Y20.6250
G01 X24.7500Y19.8750
G01 X22.6500Y19.8750
G01 X22.6500Y20.6250
g00 Z1.0000
g00 X22.5500Y19.7750
g01 Z-0.1400
g01 X22.5500Y20.7250
g01 X24.8500Y20.7250
g01 X24.8500Y19.7750
g01 X22.5500Y19.7750
g00 Z1.0000
g00 X22.4500Y19.6750
g01 Z-0.1400
g01 X22.4500Y20.8250
g01 X24.9500Y20.8250
g01 X24.9500Y19.6750
g01 X22.4500Y19.6750
g00 Z1.0000
g00 X22.3500Y19.5750
g01 Z-0.1400
g01 X22.3500Y20.9250
g01 X25.0500Y20.9250
g01 X25.0500Y19.5750
g01 X22.3500Y19.5750
G00 Z1.0000
G00 X23.3000Y18.2500
G01 Z-0.1400
G01 X23.5750Y18.1750
G01 X23.6000Y18.1250
G01 X24.7500Y18.1250
G01 X24.7500Y17.3750
G01 X23.3750Y17.3750
G01 X23.3000Y17.3500
G01 X20.2000Y17.3500
G01 X20.1500Y10.1000
G01 X42.5250Y10.2000
G01 X42.4250Y16.3750
G01 X42.4500Y16.4500
G01 X42.4500Y16.5250
G01 X42.5000Y16.5750
G01 X42.5250Y16.6250
G01 X42.5750Y16.6750
G01 X42.6250Y16.7500
G01 X42.6750Y16.7750
G01 X42.7500Y16.8000
G01 X42.8250Y16.8000
G01 X42.8750Y16.8250
G01 X44.1000Y16.8250
G01 X44.4750Y17.2000
G01 X46.7750Y17.2000
G01 X47.2750Y16.7000
G01 X47.2750Y16.0000
G01 X46.7750Y15.5000
G01 X44.4750Y15.5000
G01 X44.0500Y15.9250
G01 X43.3500Y15.9250
G01 X43.4500Y9.7500
G01 X43.4250Y9.6750
G01 X43.4250Y9.6000
G01 X43.3750Y9.5500
G01 X43.3500Y9.4750
G01 X43.3000Y9.4500
G01 X43.2500Y9.3750
G01 X43.2000Y9.3500
G01 X43.1250Y9.3250
G01 X43.0750Y9.3250
G01 X43.0000Y9.3000
G01 X19.7000Y9.2000
G01 X19.6250Y9.2250
G01 X19.5500Y9.2250
G01 X19.5000Y9.2500
G01 X19.4250Y9.2750
G01 X19.3750Y9.3250
G01 X19.3250Y9.3750
G01 X19.3000Y9.4500
G01 X19.2750Y9.5000
G01 X19.2750Y9.5750
G01 X19.2500Y9.6500
G01 X19.3000Y17.8000
G01 X19.3250Y17.8750
G01 X19.3250Y17.9500
G01 X19.3500Y18.0000
G01 X19.3750Y18.0750
G01 X19.4500Y18.1250
G01 X19.4750Y18.1750
G01 X19.5500Y18.2000
G01 X19.6000Y18.2250
G01 X19.6750Y18.2250
G01 X19.7500Y18.2500
G01 X23.3000Y18.2500
g00 Z1.0000
g00 X19.2376Y9.3210
g01 Z-0.1400
g01 X19.1750Y9.4764
g01 X19.1750Y9.5588
g01 X19.1499Y9.6341
g01 X19.2001Y17.8165
g01 X19.2250Y17.8912
g01 X19.2250Y17.9736
g01 X19.2910Y18.1392
g01 X19.3724Y18.1935
g01 X19.4041Y18.2568
g01 X19.5764Y18.3250
g01 X19.6588Y18.3250
g01 X19.7338Y18.3500
g01 X23.3134Y18.3500
g01 X23.6445Y18.2597
g01 X23.6618Y18.2250
g01 X24.8500Y18.2250
g01 X24.8500Y17.2750
g01 X23.3912Y17.2750
g01 X23.3162Y17.2500
g01 X20.2993Y17.2500
g01 X20.2507Y10.2005
g01 X42.4234Y10.2996
g01 X42.3247Y16.3904
g01 X42.3500Y16.4662
g01 X42.3500Y16.5664
g01 X42.4178Y16.6342
g01 X42.4428Y16.6842
g01 X42.4973Y16.7387
g01 X42.5565Y16.8276
g01 X42.7338Y16.9000
g01 X42.8014Y16.9000
g01 X42.8514Y16.9250
g01 X44.0586Y16.9250
g01 X44.4336Y17.3000
g01 X46.8164Y17.3000
g01 X47.3750Y16.7414
g01 X47.3750Y15.9586
g01 X46.8164Y15.4000
g01 X44.4336Y15.4000
g01 X44.0086Y15.8250
g01 X43.4516Y15.8250
g01 X43.5503Y9.7346
g01 X43.5250Y9.6588
g01 X43.5250Y9.5586
g01 X43.4624Y9.4960
g01 X43.4318Y9.4041
g01 X43.3685Y9.3724
g01 X43.3185Y9.2974
g01 X43.1412Y9.2250
g01 X43.0912Y9.2250
g01 X43.0164Y9.2001
g01 X19.6840Y9.0999
g01 X19.6088Y9.1250
g01 X19.5264Y9.1250
g01 X19.3710Y9.1876
g01 X19.2376Y9.3210
g00 Z1.0000
g00 X19.1502Y9.2670
g01 Z-0.1400
g01 X19.0750Y9.4528
g01 X19.0750Y9.5425
g01 X19.0498Y9.6181
g01 X19.1002Y17.8331
g01 X19.1250Y17.9075
g01 X19.1250Y17.9972
g01 X19.2070Y18.2034
g01 X19.2949Y18.2620
g01 X19.3332Y18.3385
g01 X19.5528Y18.4250
g01 X19.6426Y18.4250
g01 X19.7176Y18.4500
g01 X23.3268Y18.4500
g01 X23.7139Y18.3444
g01 X23.7236Y18.3250
g01 X24.9500Y18.3250
g01 X24.9500Y17.1750
g01 X23.4075Y17.1750
g01 X23.3325Y17.1500
g01 X20.3986Y17.1500
g01 X20.3514Y10.3009
g01 X42.3218Y10.3991
g01 X42.2245Y16.4059
g01 X42.2500Y16.4825
g01 X42.2500Y16.6078
g01 X42.3356Y16.6935
g01 X42.3606Y16.7435
g01 X42.4196Y16.8024
g01 X42.4881Y16.9051
g01 X42.7176Y17.0000
g01 X42.7778Y17.0000
g01 X42.8278Y17.0250
g01 X44.0172Y17.0250
g01 X44.3922Y17.4000
g01 X46.8579Y17.4000
g01 X47.4750Y16.7828
g01 X47.4750Y15.9172
g01 X46.8579Y15.3000
g01 X44.3922Y15.3000
g01 X43.9672Y15.7250
g01 X43.5533Y15.7250
g01 X43.6505Y9.7191
g01 X43.6250Y9.6425
g01 X43.6250Y9.5172
g01 X43.5498Y9.4420
g01 X43.5135Y9.3332
g01 X43.4370Y9.2949
g01 X43.3870Y9.2199
g01 X43.1575Y9.1250
g01 X43.1075Y9.1250
g01 X43.0329Y9.1001
g01 X19.6680Y8.9999
g01 X19.5925Y9.0250
g01 X19.5028Y9.0250
g01 X19.3170Y9.1002
g01 X19.1502Y9.2670
g00 Z1.0000
g00 X19.0628Y9.2129
g01 Z-0.1400
g01 X18.9750Y9.4292
g01 X18.9750Y9.5263
g01 X18.9497Y9.6022
g01 X19.0003Y17.8496
g01 X19.0250Y17.9237
g01 X19.0250Y18.0208
g01 X19.1230Y18.2675
g01 X19.2173Y18.3304
g01 X19.2622Y18.4203
g01 X19.5292Y18.5250
g01 X19.6263Y18.5250
g01 X19.7013Y18.5500
g01 X23.3402Y18.5500
g01 X23.7833Y18.4291
g01 X23.7854Y18.4250
g01 X25.0500Y18.4250
g01 X25.0500Y17.0750
g01 X23.4237Y17.0750
g01 X23.3487Y17.0500
g01 X20.4979Y17.0500
g01 X20.4521Y10.4014
g01 X42.2201Y10.4986
g01 X42.1242Y16.4213
g01 X42.1500Y16.4987
g01 X42.1500Y16.6493
g01 X42.2534Y16.7527
g01 X42.2784Y16.8027
g01 X42.3419Y16.8661
g01 X42.4196Y16.9827
g01 X42.7013Y17.1000
g01 X42.7542Y17.1000
g01 X42.8042Y17.1250
g01 X43.9757Y17.1250
g01 X44.3507Y17.5000
g01 X46.8993Y17.5000
g01 X47.5750Y16.8243
g01 X47.5750Y15.8757
g01 X46.8993Y15.2000
g01 X44.3507Y15.2000
g01 X43.9257Y15.6250
g01 X43.6549Y15.6250
g01 X43.7508Y9.7037
g01 X43.7250Y9.6263
g01 X43.7250Y9.4757
g01 X43.6372Y9.3879
g01 X43.5953Y9.2622
g01 X43.5054Y9.2173
g01 X43.4554Y9.1423
g01 X43.1737Y9.0250
g01 X43.1237Y9.0250
g01 X43.0493Y9.0002
g01 X19.6519Y8.8998
g01 X19.5763Y8.9250
g01 X19.4792Y8.9250
g01 X19.2630Y9.0128
g01 X19.0628Y9.2129
G00 Z1.0000
G00 X22.6500Y16.8750
G01 Z-0.1400
G01 X24.7500Y16.8750
G01 X24.7500Y16.1250
G01 X22.6500Y16.1250
G01 X22.6500Y16.8750
g00 Z1.0000
g00 X22.5500Y16.0250
g01 Z-0.1400
g01 X22.5500Y16.9750
g01 X24.8500Y16.9750
g01 X24.8500Y16.0250
g01 X22.5500Y16.0250
g00 Z1.0000
g00 X22.4500Y15.9250
g01 Z-0.1400
g01 X22.4500Y17.0750
g01 X24.9500Y17.0750
g01 X24.9500Y15.9250
g01 X22.4500Y15.9250
g00 Z1.0000
g00 X22.3500Y15.8250
g01 Z-0.1400
g01 X22.3500Y17.1750
g01 X25.0500Y17.1750
g01 X25.0500Y15.8250
g01 X22.3500Y15.8250
G00 Z1.0000
G00 X22.6500Y15.5750
G01 Z-0.1400
G01 X24.7500Y15.5750
G01 X24.7500Y14.8250
G01 X22.6500Y14.8250
G01 X22.6500Y15.5750
g00 Z1.0000
g00 X22.5500Y14.7250
g01 Z-0.1400
g01 X22.5500Y15.6750
g01 X24.8500Y15.6750
g01 X24.8500Y14.7250
g01 X22.5500Y14.7250
g00 Z1.0000
g00 X22.4500Y14.6250
g01 Z-0.1400
g01 X22.4500Y15.7750
g01 X24.9500Y15.7750
g01 X24.9500Y14.6250
g01 X22.4500Y14.6250
g00 Z1.0000
g00 X22.3500Y14.5250
g01 Z-0.1400
g01 X22.3500Y15.8750
g01 X25.0500Y15.8750
g01 X25.0500Y14.5250
g01 X22.3500Y14.5250
G00 Z1.0000
G00 X25.6000Y16.4750
G01 Z-0.1400
G01 X25.6250Y16.5500
G01 X25.6250Y16.6250
G01 X25.6750Y16.6750
G01 X25.7000Y16.7500
G01 X25.7500Y16.8000
G01 X25.7750Y16.8500
G01 X25.8500Y16.8750
G01 X25.9250Y16.9000
G01 X25.9750Y16.9000
G01 X26.0500Y16.9250
G01 X27.6250Y16.9500
G01 X27.8500Y16.8750
G01 X29.2750Y16.8750
G01 X29.2750Y16.1250
G01 X27.8500Y16.1250
G01 X27.6250Y16.0500
G01 X26.5000Y16.0500
G01 X26.5000Y11.9500
G01 X40.9250Y11.9500
G01 X40.9250Y18.8500
G01 X40.9500Y18.9250
G01 X40.9500Y19.0000
G01 X41.0000Y19.0500
G01 X41.0250Y19.1250
G01 X41.0750Y19.1750
G01 X41.1250Y19.2250
G01 X41.1750Y19.2500
G01 X41.2500Y19.2750
G01 X41.3000Y19.2750
G01 X41.3750Y19.3000
G01 X44.0500Y19.3250
G01 X44.4750Y19.7500
G01 X46.7750Y19.7500
G01 X47.2750Y19.2500
G01 X47.2750Y18.5500
G01 X46.7750Y18.0500
G01 X44.4750Y18.0500
G01 X44.0750Y18.4250
G01 X41.8250Y18.4250
G01 X41.8250Y11.5000
G01 X41.8000Y11.4250
G01 X41.8000Y11.3500
G01 X41.7750Y11.3000
G01 X41.7500Y11.2250
G01 X41.6750Y11.1750
G01 X41.6500Y11.1250
G01 X41.5750Y11.1000
G01 X41.5250Y11.0500
G01 X26.0500Y11.0500
G01 X25.9750Y11.0750
G01 X25.9250Y11.0750
G01 X25.8500Y11.1250
G01 X25.8000Y11.1250
G01 X25.7500Y11.2000
G01 X25.7000Y11.2250
G01 X25.6750Y11.3000
G01 X25.6250Y11.3500
G01 X25.6250Y11.4250
G01 X25.6000Y11.5000
G01 X25.6000Y16.4750
g00 Z1.0000
g00 X25.5250Y11.3086
g01 Z-0.1400
g01 X25.5250Y11.4088
g01 X25.5000Y11.4838
g01 X25.5000Y16.4912
g01 X25.5250Y16.5662
g01 X25.5250Y16.6664
g01 X25.5876Y16.7290
g01 X25.6126Y16.8040
g01 X25.6678Y16.8592
g01 X25.7041Y16.9318
g01 X25.9088Y17.0000
g01 X25.9588Y17.0000
g01 X26.0330Y17.0247
g01 X27.6405Y17.0503
g01 X27.8662Y16.9750
g01 X29.3750Y16.9750
g01 X29.3750Y16.0250
g01 X27.8662Y16.0250
g01 X27.6412Y15.9500
g01 X26.6000Y15.9500
g01 X26.6000Y12.0500
g01 X40.8250Y12.0500
g01 X40.8250Y18.8662
g01 X40.8500Y18.9412
g01 X40.8500Y19.0414
g01 X40.9126Y19.1040
g01 X40.9376Y19.1790
g01 X41.0658Y19.3072
g01 X41.2338Y19.3750
g01 X41.2838Y19.3750
g01 X41.3583Y19.3999
g01 X44.0082Y19.4246
g01 X44.4336Y19.8500
g01 X46.8164Y19.8500
g01 X47.3750Y19.2914
g01 X47.3750Y18.5086
g01 X46.8164Y17.9500
g01 X44.4355Y17.9500
g01 X44.0355Y18.3250
g01 X41.9250Y18.3250
g01 X41.9250Y11.4838
g01 X41.9000Y11.4088
g01 X41.9000Y11.3264
g01 X41.8340Y11.1608
g01 X41.7526Y11.1065
g01 X41.7209Y11.0432
g01 X41.6290Y11.0126
g01 X41.5664Y10.9500
g01 X26.0338Y10.9500
g01 X25.9588Y10.9750
g01 X25.8947Y10.9750
g01 X25.8197Y11.0250
g01 X25.7465Y11.0250
g01 X25.6815Y11.1224
g01 X25.6182Y11.1541
g01 X25.5876Y11.2460
g01 X25.5250Y11.3086
g00 Z1.0000
g00 X25.4250Y11.2672
g01 Z-0.1400
g01 X25.4250Y11.3926
g01 X25.4000Y11.4676
g01 X25.4000Y16.5075
g01 X25.4250Y16.5825
g01 X25.4250Y16.7078
g01 X25.5002Y16.7830
g01 X25.5252Y16.8580
g01 X25.5856Y16.9185
g01 X25.6332Y17.0135
g01 X25.8925Y17.1000
g01 X25.9425Y17.1000
g01 X26.0160Y17.1245
g01 X27.6559Y17.1505
g01 X27.8825Y17.0750
g01 X29.4750Y17.0750
g01 X29.4750Y15.9250
g01 X27.8825Y15.9250
g01 X27.6575Y15.8500
g01 X26.7000Y15.8500
g01 X26.7000Y12.1500
g01 X40.7250Y12.1500
g01 X40.7250Y18.8825
g01 X40.7500Y18.9575
g01 X40.7500Y19.0828
g01 X40.8252Y19.1580
g01 X40.8502Y19.2330
g01 X41.0065Y19.3894
g01 X41.2176Y19.4750
g01 X41.2676Y19.4750
g01 X41.3416Y19.4997
g01 X43.9664Y19.5242
g01 X44.3922Y19.9500
g01 X46.8579Y19.9500
g01 X47.4750Y19.3328
g01 X47.4750Y18.4672
g01 X46.8579Y17.8500
g01 X44.3959Y17.8500
g01 X43.9959Y18.2250
g01 X42.0250Y18.2250
g01 X42.0250Y11.4675
g01 X42.0000Y11.3925
g01 X42.0000Y11.3028
g01 X41.9180Y11.0967
g01 X41.8301Y11.0381
g01 X41.7918Y10.9615
g01 X41.6830Y10.9252
g01 X41.6079Y10.8500
g01 X26.0175Y10.8500
g01 X25.9425Y10.8750
g01 X25.8644Y10.8750
g01 X25.7894Y10.9250
g01 X25.6930Y10.9250
g01 X25.6131Y11.0449
g01 X25.5365Y11.0832
g01 X25.5002Y11.1920
g01 X25.4250Y11.2672
g00 Z1.0000
g00 X25.3250Y11.2257
g01 Z-0.1400
g01 X25.3250Y11.3763
g01 X25.3000Y11.4513
g01 X25.3000Y16.5237
g01 X25.3250Y16.5987
g01 X25.3250Y16.7493
g01 X25.4128Y16.8371
g01 X25.4378Y16.9121
g01 X25.5034Y16.9777
g01 X25.5622Y17.0953
g01 X25.8763Y17.2000
g01 X25.9263Y17.2000
g01 X25.9990Y17.2242
g01 X27.6714Y17.2508
g01 X27.8987Y17.1750
g01 X29.5750Y17.1750
g01 X29.5750Y15.8250
g01 X27.8987Y15.8250
g01 X27.6737Y15.7500
g01 X26.8000Y15.7500
g01 X26.8000Y12.2500
g01 X40.6250Y12.2500
g01 X40.6250Y18.8987
g01 X40.6500Y18.9737
g01 X40.6500Y19.1243
g01 X40.7378Y19.2121
g01 X40.7628Y19.2871
g01 X40.9473Y19.4716
g01 X41.2013Y19.5750
g01 X41.2513Y19.5750
g01 X41.3250Y19.5996
g01 X43.9246Y19.6238
g01 X44.3507Y20.0500
g01 X46.8993Y20.0500
g01 X47.5750Y19.3743
g01 X47.5750Y18.4257
g01 X46.8993Y17.7500
g01 X44.3564Y17.7500
g01 X43.9564Y18.1250
g01 X42.1250Y18.1250
g01 X42.1250Y11.4513
g01 X42.1000Y11.3763
g01 X42.1000Y11.2792
g01 X42.0021Y11.0325
g01 X41.9077Y10.9696
g01 X41.8628Y10.8797
g01 X41.7371Y10.8378
g01 X41.6493Y10.7500
g01 X26.0013Y10.7500
g01 X25.9263Y10.7750
g01 X25.8342Y10.7750
g01 X25.7592Y10.8250
g01 X25.6394Y10.8250
g01 X25.5446Y10.9673
g01 X25.4547Y11.0123
g01 X25.4128Y11.1380
g01 X25.3250Y11.2257
G00 Z1.0000
G00 X27.1750Y15.6000
G01 Z-0.1400
G01 X29.2750Y15.6000
G01 X29.2750Y14.8500
G01 X27.1750Y14.8500
G01 X27.1750Y15.6000
g00 Z1.0000
g00 X27.0750Y14.7500
g01 Z-0.1400
g01 X27.0750Y15.7000
g01 X29.3750Y15.7000
g01 X29.3750Y14.7500
g01 X27.0750Y14.7500
g00 Z1.0000
g00 X26.9750Y14.6500
g01 Z-0.1400
g01 X26.9750Y15.8000
g01 X29.4750Y15.8000
g01 X29.4750Y14.6500
g01 X26.9750Y14.6500
g00 Z1.0000
g00 X26.8750Y14.5500
g01 Z-0.1400
g01 X26.8750Y15.9000
g01 X29.5750Y15.9000
g01 X29.5750Y14.5500
g01 X26.8750Y14.5500
G00 Z1.0000
G00 X27.1750Y14.3250
G01 Z-0.1400
G01 X29.2750Y14.3250
G01 X29.2750Y13.5750
G01 X27.1750Y13.5750
G01 X27.1750Y14.3250
g00 Z1.0000
g00 X27.0750Y13.4750
g01 Z-0.1400
g01 X27.0750Y14.4250
g01 X29.3750Y14.4250
g01 X29.3750Y13.4750
g01 X27.0750Y13.4750
g00 Z1.0000
g00 X26.9750Y13.3750
g01 Z-0.1400
g01 X26.9750Y14.5250
g01 X29.4750Y14.5250
g01 X29.4750Y13.3750
g01 X26.9750Y13.3750
g00 Z1.0000
g00 X26.8750Y13.2750
g01 Z-0.1400
g01 X26.8750Y14.6250
g01 X29.5750Y14.6250
g01 X29.5750Y13.2750
g01 X26.8750Y13.2750
G00 Z1.0000
G00 X27.6000Y17.3250
G01 Z-0.1400
G01 X27.4000Y17.4000
G01 X27.1750Y17.4000
G01 X27.1750Y18.1500
G01 X27.3750Y18.1500
G01 X27.6250Y18.2250
G01 X30.6000Y18.1000
G01 X30.6500Y18.0750
G01 X30.7250Y18.0750
G01 X30.7750Y18.0250
G01 X30.8500Y18.0000
G01 X30.9000Y17.9500
G01 X30.9500Y17.9250
G01 X30.9750Y17.8500
G01 X31.0000Y17.7750
G01 X31.0000Y17.7250
G01 X31.0250Y17.6500
G01 X31.0000Y13.5750
G01 X39.2500Y13.4750
G01 X39.2500Y21.4500
G01 X39.2750Y21.5000
G01 X39.2750Y21.5750
G01 X39.3000Y21.6250
G01 X39.3250Y21.7000
G01 X39.3750Y21.7500
G01 X39.4250Y21.8000
G01 X39.5000Y21.8250
G01 X39.5500Y21.8750
G01 X39.6250Y21.8750
G01 X39.7000Y21.9000
G01 X44.0750Y21.8750
G01 X44.4750Y22.2750
G01 X46.7750Y22.2750
G01 X47.2750Y21.7750
G01 X47.2750Y21.0750
G01 X46.7750Y20.5750
G01 X44.4750Y20.5750
G01 X44.0750Y20.9750
G01 X40.1500Y21.0000
G01 X40.1500Y13.0000
G01 X40.1250Y12.9500
G01 X40.1250Y12.8750
G01 X40.1000Y12.8250
G01 X40.0750Y12.7500
G01 X40.0000Y12.7000
G01 X39.9500Y12.6500
G01 X39.9000Y12.6250
G01 X39.8500Y12.5750
G01 X39.7750Y12.5750
G01 X39.7000Y12.5500
G01 X30.5500Y12.6750
G01 X30.4750Y12.7000
G01 X30.4250Y12.7000
G01 X30.3500Y12.7250
G01 X30.2750Y12.7500
G01 X30.2500Y12.8250
G01 X30.2000Y12.8500
G01 X30.1750Y12.9250
G01 X30.1250Y12.9750
G01 X30.1250Y13.0500
G01 X30.1000Y13.1250
G01 X30.1250Y17.2250
G01 X27.6000Y17.3250
g00 Z1.0000
g00 X27.0750Y17.3000
g01 Z-0.1400
g01 X27.0750Y18.2500
g01 X27.3603Y18.2500
g01 X27.6124Y18.3256
g01 X30.6256Y18.1990
g01 X30.6736Y18.1750
g01 X30.7664Y18.1750
g01 X30.8290Y18.1124
g01 X30.9040Y18.0874
g01 X30.9592Y18.0322
g01 X31.0318Y17.9959
g01 X31.1000Y17.7912
g01 X31.1000Y17.7412
g01 X31.1251Y17.6659
g01 X31.1006Y13.6738
g01 X39.1500Y13.5762
g01 X39.1500Y21.4736
g01 X39.1750Y21.5236
g01 X39.1750Y21.5986
g01 X39.2376Y21.7540
g01 X39.3710Y21.8874
g01 X39.4460Y21.9124
g01 X39.5086Y21.9750
g01 X39.6088Y21.9750
g01 X39.6841Y22.0001
g01 X44.0338Y21.9752
g01 X44.4336Y22.3750
g01 X46.8164Y22.3750
g01 X47.3750Y21.8164
g01 X47.3750Y21.0336
g01 X46.8164Y20.4750
g01 X44.4336Y20.4750
g01 X44.0333Y20.8753
g01 X40.2500Y20.8994
g01 X40.2500Y12.9764
g01 X40.2250Y12.9264
g01 X40.2250Y12.8514
g01 X40.1590Y12.6858
g01 X40.0637Y12.6223
g01 X40.0092Y12.5678
g01 X39.9592Y12.5428
g01 X39.8914Y12.4750
g01 X39.7912Y12.4750
g01 X39.7156Y12.4498
g01 X30.5331Y12.5752
g01 X30.4588Y12.6000
g01 X30.4088Y12.6000
g01 X30.1959Y12.6709
g01 X30.1682Y12.7541
g01 X30.1182Y12.7791
g01 X30.0876Y12.8710
g01 X30.0250Y12.9336
g01 X30.0250Y13.0338
g01 X29.9999Y13.1091
g01 X30.0244Y17.1289
g01 X27.5800Y17.2257
g01 X27.3819Y17.3000
g01 X27.0750Y17.3000
g00 Z1.0000
g00 X26.9750Y17.2000
g01 Z-0.1400
g01 X26.9750Y18.3500
g01 X27.3457Y18.3500
g01 X27.5998Y18.4262
g01 X30.6512Y18.2980
g01 X30.6972Y18.2750
g01 X30.8078Y18.2750
g01 X30.8830Y18.1998
g01 X30.9580Y18.1748
g01 X31.0185Y18.1144
g01 X31.1135Y18.0668
g01 X31.2000Y17.8075
g01 X31.2000Y17.7575
g01 X31.2252Y17.6819
g01 X31.2012Y13.7726
g01 X39.0500Y13.6774
g01 X39.0500Y21.4972
g01 X39.0750Y21.5472
g01 X39.0750Y21.6222
g01 X39.1502Y21.8080
g01 X39.3170Y21.9748
g01 X39.3920Y21.9998
g01 X39.4672Y22.0750
g01 X39.5926Y22.0750
g01 X39.6681Y22.1002
g01 X43.9926Y22.0755
g01 X44.3922Y22.4750
g01 X46.8579Y22.4750
g01 X47.4750Y21.8578
g01 X47.4750Y20.9922
g01 X46.8579Y20.3750
g01 X44.3922Y20.3750
g01 X43.9916Y20.7755
g01 X40.3500Y20.7987
g01 X40.3500Y12.9528
g01 X40.3250Y12.9028
g01 X40.3250Y12.8278
g01 X40.2430Y12.6217
g01 X40.1274Y12.5446
g01 X40.0685Y12.4856
g01 X40.0185Y12.4606
g01 X39.9328Y12.3750
g01 X39.8075Y12.3750
g01 X39.7311Y12.3496
g01 X30.5162Y12.4754
g01 X30.4425Y12.5000
g01 X30.3925Y12.5000
g01 X30.1169Y12.5919
g01 X30.0865Y12.6832
g01 X30.0365Y12.7082
g01 X30.0002Y12.8170
g01 X29.9250Y12.8922
g01 X29.9250Y13.0176
g01 X29.8998Y13.0931
g01 X29.9238Y17.0328
g01 X27.5599Y17.1264
g01 X27.3637Y17.2000
g01 X26.9750Y17.2000
g00 Z1.0000
g00 X26.8750Y17.1000
g01 Z-0.1400
g01 X26.8750Y18.4500
g01 X27.3310Y18.4500
g01 X27.5872Y18.5269
g01 X30.6767Y18.3970
g01 X30.7208Y18.3750
g01 X30.8493Y18.3750
g01 X30.9371Y18.2872
g01 X31.0121Y18.2622
g01 X31.0777Y18.1966
g01 X31.1953Y18.1378
g01 X31.3000Y17.8237
g01 X31.3000Y17.7737
g01 X31.3253Y17.6978
g01 X31.3018Y13.8714
g01 X38.9500Y13.7787
g01 X38.9500Y21.5208
g01 X38.9750Y21.5708
g01 X38.9750Y21.6458
g01 X39.0628Y21.8621
g01 X39.2629Y22.0622
g01 X39.3379Y22.0872
g01 X39.4257Y22.1750
g01 X39.5763Y22.1750
g01 X39.6522Y22.2003
g01 X43.9515Y22.1757
g01 X44.3507Y22.5750
g01 X46.8993Y22.5750
g01 X47.5750Y21.8993
g01 X47.5750Y20.9507
g01 X46.8993Y20.2750
g01 X44.3507Y20.2750
g01 X43.9500Y20.6758
g01 X40.4500Y20.6981
g01 X40.4500Y12.9292
g01 X40.4250Y12.8792
g01 X40.4250Y12.8042
g01 X40.3271Y12.5575
g01 X40.1911Y12.4669
g01 X40.1277Y12.4035
g01 X40.0777Y12.3785
g01 X39.9743Y12.2750
g01 X39.8237Y12.2750
g01 X39.7467Y12.2493
g01 X30.4993Y12.3757
g01 X30.4263Y12.4000
g01 X30.3763Y12.4000
g01 X30.0378Y12.5128
g01 X30.0047Y12.6123
g01 X29.9547Y12.6373
g01 X29.9128Y12.7630
g01 X29.8250Y12.8507
g01 X29.8250Y13.0013
g01 X29.7997Y13.0772
g01 X29.8232Y16.9367
g01 X27.5399Y17.0272
g01 X27.3456Y17.1000
g01 X26.8750Y17.1000
G00 Z1.0000
G00 X27.1750Y19.9250
G01 Z-0.1400
G01 X27.1750Y20.6750
G01 X29.2750Y20.6750
G01 X29.2750Y19.9250
G01 X27.1750Y19.9250
g00 Z1.0000
g00 X27.0750Y19.8250
g01 Z-0.1400
g01 X27.0750Y20.7750
g01 X29.3750Y20.7750
g01 X29.3750Y19.8250
g01 X27.0750Y19.8250
g00 Z1.0000
g00 X26.9750Y19.7250
g01 Z-0.1400
g01 X26.9750Y20.8750
g01 X29.4750Y20.8750
g01 X29.4750Y19.7250
g01 X26.9750Y19.7250
g00 Z1.0000
g00 X26.8750Y19.6250
g01 Z-0.1400
g01 X26.8750Y20.9750
g01 X29.5750Y20.9750
g01 X29.5750Y19.6250
g01 X26.8750Y19.6250
G00 Z1.0000
G00 X27.1750Y21.2000
G01 Z-0.1400
G01 X27.1750Y21.9500
G01 X27.4000Y21.9500
G01 X27.6250Y22.0250
G01 X29.2000Y22.0000
G01 X29.2500Y21.9750
G01 X29.3250Y21.9750
G01 X33.8000Y20.8250
G01 X33.8000Y20.8500
G01 X34.1250Y21.0750
G01 X34.4750Y21.1500
G01 X34.8500Y21.0750
G01 X35.1500Y20.8500
G01 X35.3500Y20.5500
G01 X35.4250Y20.2000
G01 X35.3500Y19.8250
G01 X35.1500Y19.5250
G01 X34.8500Y19.3250
G01 X34.4750Y19.2500
G01 X34.1250Y19.3250
G01 X33.8000Y19.5250
G01 X33.6000Y19.8250
G01 X33.5750Y19.9500
G01 X29.1500Y21.1000
G01 X27.6250Y21.1250
G01 X27.4000Y21.2000
G01 X27.1750Y21.2000
g00 Z1.0000
g00 X27.0750Y21.1000
g01 Z-0.1400
g01 X27.0750Y22.0500
g01 X27.3838Y22.0500
g01 X27.6096Y22.1253
g01 X29.2244Y22.0996
g01 X29.2736Y22.0750
g01 X29.3376Y22.0750
g01 X33.7000Y20.9540
g01 X33.7000Y20.9024
g01 X34.0845Y21.1686
g01 X34.4743Y21.2521
g01 X34.8919Y21.1686
g01 X35.2237Y20.9197
g01 X35.4438Y20.5896
g01 X35.5271Y20.2007
g01 X35.4442Y19.7860
g01 X35.2221Y19.4529
g01 X34.8890Y19.2308
g01 X34.4743Y19.1479
g01 X34.0872Y19.2308
g01 X33.7289Y19.4513
g01 X33.5058Y19.7860
g01 X33.4892Y19.8690
g01 X29.1364Y21.0002
g01 X27.6080Y21.0253
g01 X27.3838Y21.1000
g01 X27.0750Y21.1000
g00 Z1.0000
g00 X26.9750Y21.0000
g01 Z-0.1400
g01 X26.9750Y22.1500
g01 X27.3676Y22.1500
g01 X27.5941Y22.2255
g01 X29.2487Y22.1993
g01 X29.2972Y22.1750
g01 X29.3503Y22.1750
g01 X33.6000Y21.0829
g01 X33.6000Y20.9548
g01 X34.0440Y21.2622
g01 X34.4736Y21.3542
g01 X34.9337Y21.2622
g01 X35.2974Y20.9894
g01 X35.5376Y20.6292
g01 X35.6292Y20.2014
g01 X35.5384Y19.7470
g01 X35.2942Y19.3808
g01 X34.9280Y19.1366
g01 X34.4736Y19.0458
g01 X34.0495Y19.1367
g01 X33.6579Y19.3776
g01 X33.4116Y19.7470
g01 X33.4035Y19.7879
g01 X29.1228Y20.9004
g01 X27.5910Y20.9255
g01 X27.3675Y21.0000
g01 X26.9750Y21.0000
g00 Z1.0000
g00 X26.8750Y20.9000
g01 Z-0.1400
g01 X26.8750Y22.2500
g01 X27.3513Y22.2500
g01 X27.5786Y22.3258
g01 X29.2731Y22.2989
g01 X29.3208Y22.2750
g01 X29.3629Y22.2750
g01 X33.5000Y21.2118
g01 X33.5000Y21.0072
g01 X34.0035Y21.3558
g01 X34.4729Y21.4564
g01 X34.9756Y21.3558
g01 X35.3711Y21.0592
g01 X35.6314Y20.6688
g01 X35.7314Y20.2021
g01 X35.6325Y19.7080
g01 X35.3663Y19.3087
g01 X34.9670Y19.0425
g01 X34.4729Y18.9436
g01 X34.0117Y19.0425
g01 X33.5868Y19.3039
g01 X33.3175Y19.7080
g01 X33.3177Y19.7069
g01 X29.1092Y20.8006
g01 X27.5739Y20.8258
g01 X27.3513Y20.9000
g01 X26.8750Y20.9000
G00 Z1.0000
G00 X27.1750Y22.4750
G01 Z-0.1400
G01 X27.1750Y23.2250
G01 X27.4000Y23.2250
G01 X27.6250Y23.3000
G01 X29.2750Y23.3250
G01 X29.3000Y23.3250
G01 X33.4750Y23.0750
G01 X33.5750Y23.2500
G01 X33.9000Y23.4750
G01 X34.2500Y23.5500
G01 X34.6250Y23.4750
G01 X34.9250Y23.2500
G01 X35.1250Y22.9500
G01 X35.2000Y22.6000
G01 X35.1250Y22.2250
G01 X34.9250Y21.9250
G01 X34.6250Y21.7250
G01 X34.2500Y21.6500
G01 X33.9000Y21.7250
G01 X33.5750Y21.9250
G01 X33.4000Y22.2000
G01 X29.2750Y22.4250
G01 X27.6250Y22.4000
G01 X27.4000Y22.4750
G01 X27.1750Y22.4750
g00 Z1.0000
g00 X27.0750Y22.3750
g01 Z-0.1400
g01 X27.0750Y23.3250
g01 X27.3838Y23.3250
g01 X27.6080Y23.3998
g01 X29.3030Y23.4250
g01 X33.4190Y23.1785
g01 X33.4994Y23.3193
g01 X33.8595Y23.5686
g01 X34.2493Y23.6521
g01 X34.6669Y23.5686
g01 X34.9987Y23.3197
g01 X35.2188Y22.9896
g01 X35.3021Y22.6007
g01 X35.2192Y22.1860
g01 X34.9971Y21.8529
g01 X34.6640Y21.6308
g01 X34.2493Y21.5479
g01 X33.8622Y21.6308
g01 X33.5030Y21.8519
g01 X33.3432Y22.1030
g01 X29.2730Y22.3250
g01 X27.6095Y22.2998
g01 X27.3838Y22.3750
g01 X27.0750Y22.3750
g00 Z1.0000
g00 X26.9750Y22.2750
g01 Z-0.1400
g01 X26.9750Y23.4250
g01 X27.3676Y23.4250
g01 X27.5911Y23.4995
g01 X29.3060Y23.5250
g01 X33.3630Y23.2821
g01 X33.4239Y23.3886
g01 X33.8190Y23.6622
g01 X34.2486Y23.7542
g01 X34.7087Y23.6622
g01 X35.0724Y23.3894
g01 X35.3126Y23.0292
g01 X35.4042Y22.6014
g01 X35.3134Y22.1470
g01 X35.0692Y21.7808
g01 X34.7030Y21.5366
g01 X34.2486Y21.4458
g01 X33.8245Y21.5367
g01 X33.4310Y21.7788
g01 X33.2865Y22.0059
g01 X29.2711Y22.2249
g01 X27.5940Y22.1995
g01 X27.3675Y22.2750
g01 X26.9750Y22.2750
g00 Z1.0000
g00 X26.8750Y22.1750
g01 Z-0.1400
g01 X26.8750Y23.5250
g01 X27.3513Y23.5250
g01 X27.5741Y23.5993
g01 X29.3090Y23.6250
g01 X33.3070Y23.3856
g01 X33.3483Y23.4579
g01 X33.7785Y23.7558
g01 X34.2479Y23.8564
g01 X34.7506Y23.7558
g01 X35.1461Y23.4592
g01 X35.4064Y23.0688
g01 X35.5064Y22.6021
g01 X35.4075Y22.1080
g01 X35.1413Y21.7087
g01 X34.7420Y21.4425
g01 X34.2479Y21.3436
g01 X33.7867Y21.4425
g01 X33.3590Y21.7057
g01 X33.2297Y21.9088
g01 X29.2691Y22.1249
g01 X27.5785Y22.0993
g01 X27.3513Y22.1750
g01 X26.8750Y22.1750
G00 Z1.0000
G00 X27.6250Y24.9250
G01 Z-0.1400
G01 X27.4000Y25.0000
G01 X27.1750Y25.0000
G01 X27.1750Y25.7500
G01 X27.4000Y25.7500
G01 X27.6250Y25.8250
G01 X30.4500Y25.8500
G01 X34.2000Y26.7000
G01 X34.2250Y26.8000
G01 X34.4250Y27.1000
G01 X34.7250Y27.3250
G01 X35.1000Y27.4000
G01 X35.4500Y27.3250
G01 X35.7750Y27.1000
G01 X35.9750Y26.8000
G01 X36.0500Y26.4500
G01 X35.9750Y26.0750
G01 X35.7750Y25.7750
G01 X35.4500Y25.5750
G01 X35.1000Y25.5000
G01 X34.7250Y25.5750
G01 X34.4250Y25.7750
G01 X34.3750Y25.8250
G01 X30.6000Y24.9500
G01 X30.5500Y24.9750
G01 X30.5000Y24.9500
G01 X27.6250Y24.9250
g00 Z1.0000
g00 X27.0750Y24.9000
g01 Z-0.1400
g01 X27.0750Y25.8500
g01 X27.3838Y25.8500
g01 X27.6083Y25.9249
g01 X30.4384Y25.9499
g01 X34.1179Y26.7839
g01 X34.1322Y26.8411
g01 X34.3513Y27.1697
g01 X34.6831Y27.4186
g01 X35.1007Y27.5021
g01 X35.4905Y27.4186
g01 X35.8476Y27.1714
g01 X36.0688Y26.8396
g01 X36.1521Y26.4507
g01 X36.0692Y26.0360
g01 X35.8461Y25.7013
g01 X35.4878Y25.4808
g01 X35.1007Y25.3979
g01 X34.6860Y25.4808
g01 X34.3613Y25.6973
g01 X34.3435Y25.7151
g01 X30.5875Y24.8445
g01 X30.5500Y24.8632
g01 X30.5240Y24.8502
g01 X27.6092Y24.8249
g01 X27.3838Y24.9000
g01 X27.0750Y24.9000
g00 Z1.0000
g00 X26.9750Y24.8000
g01 Z-0.1400
g01 X26.9750Y25.9500
g01 X27.3675Y25.9500
g01 X27.5917Y26.0247
g01 X30.4267Y26.0498
g01 X34.0358Y26.8679
g01 X34.0394Y26.8821
g01 X34.2776Y27.2394
g01 X34.6413Y27.5122
g01 X35.1014Y27.6042
g01 X35.5310Y27.5122
g01 X35.9202Y27.2427
g01 X36.1626Y26.8792
g01 X36.2542Y26.4514
g01 X36.1634Y25.9970
g01 X35.9171Y25.6276
g01 X35.5255Y25.3867
g01 X35.1014Y25.2958
g01 X34.6470Y25.3866
g01 X34.2976Y25.6196
g01 X34.3121Y25.6051
g01 X30.5750Y24.7389
g01 X30.5500Y24.7514
g01 X30.5480Y24.7504
g01 X27.5934Y24.7247
g01 X27.3675Y24.8000
g01 X26.9750Y24.8000
g00 Z1.0000
g00 X26.8750Y24.7000
g01 Z-0.1400
g01 X26.8750Y26.0500
g01 X27.3513Y26.0500
g01 X27.5750Y26.1246
g01 X30.4151Y26.1497
g01 X33.9537Y26.9518
g01 X33.9466Y26.9232
g01 X34.2039Y27.3092
g01 X34.5994Y27.6058
g01 X35.1021Y27.7064
g01 X35.5715Y27.6058
g01 X35.9929Y27.3141
g01 X36.2564Y26.9188
g01 X36.3564Y26.4521
g01 X36.2575Y25.9580
g01 X35.9882Y25.5539
g01 X35.5633Y25.2925
g01 X35.1021Y25.1936
g01 X34.6080Y25.2925
g01 X34.2339Y25.5419
g01 X34.2806Y25.4952
g01 X30.5625Y24.6334
g01 X30.5500Y24.6396
g01 X30.5721Y24.6506
g01 X27.5776Y24.6246
g01 X27.3513Y24.7000
g01 X26.8750Y24.7000
G00 Z1.0000
G00 X27.6000Y26.2250
G01 Z-0.1400
G01 X27.4000Y26.3000
G01 X27.1750Y26.3000
G01 X27.1750Y27.0500
G01 X27.3750Y27.0500
G01 X27.6500Y27.1250
G01 X29.5500Y27.0500
G01 X35.4250Y28.9000
G01 X35.4500Y29.0750
G01 X35.6500Y29.3750
G01 X35.9750Y29.5750
G01 X36.3250Y29.6500
G01 X36.7000Y29.5750
G01 X37.0000Y29.3750
G01 X37.2000Y29.0750
G01 X37.2750Y28.7000
G01 X37.2000Y28.3500
G01 X37.0000Y28.0500
G01 X36.7000Y27.8250
G01 X36.3250Y27.7500
G01 X35.9750Y27.8250
G01 X35.6750Y28.0250
G01 X29.7250Y26.1750
G01 X29.6500Y26.1750
G01 X29.5750Y26.1500
G01 X27.6000Y26.2250
g00 Z1.0000
g00 X27.0750Y26.2000
g01 Z-0.1400
g01 X27.0750Y27.1500
g01 X27.3616Y27.1500
g01 X27.6386Y27.2255
g01 X29.5366Y27.1506
g01 X35.3349Y28.9765
g01 X35.3542Y29.1116
g01 X35.5789Y29.4487
g01 X35.9372Y29.6692
g01 X36.3243Y29.7521
g01 X36.7390Y29.6692
g01 X37.0721Y29.4471
g01 X37.2942Y29.1140
g01 X37.3771Y28.6993
g01 X37.2938Y28.3104
g01 X37.0737Y27.9803
g01 X36.7419Y27.7314
g01 X36.3243Y27.6479
g01 X35.9354Y27.7312
g01 X35.6592Y27.9154
g01 X29.7402Y26.0750
g01 X29.6662Y26.0750
g01 X29.5894Y26.0494
g01 X27.5800Y26.1257
g01 X27.3819Y26.2000
g01 X27.0750Y26.2000
g00 Z1.0000
g00 X26.9750Y26.1000
g01 Z-0.1400
g01 X26.9750Y27.2500
g01 X27.3482Y27.2500
g01 X27.6271Y27.3261
g01 X29.5231Y27.2512
g01 X35.2448Y29.0529
g01 X35.2584Y29.1482
g01 X35.5079Y29.5224
g01 X35.8995Y29.7634
g01 X36.3236Y29.8542
g01 X36.7780Y29.7634
g01 X37.1442Y29.5192
g01 X37.3884Y29.1530
g01 X37.4792Y28.6986
g01 X37.3876Y28.2708
g01 X37.1474Y27.9106
g01 X36.7837Y27.6378
g01 X36.3236Y27.5458
g01 X35.8958Y27.6374
g01 X35.6434Y27.8057
g01 X29.7554Y25.9750
g01 X29.6825Y25.9750
g01 X29.6038Y25.9488
g01 X27.5601Y26.0264
g01 X27.3637Y26.1000
g01 X26.9750Y26.1000
g00 Z1.0000
g00 X26.8750Y26.0000
g01 Z-0.1400
g01 X26.8750Y27.3500
g01 X27.3348Y27.3500
g01 X27.6157Y27.4266
g01 X29.5097Y27.3518
g01 X35.1547Y29.1294
g01 X35.1626Y29.1848
g01 X35.4368Y29.5961
g01 X35.8617Y29.8575
g01 X36.3229Y29.9564
g01 X36.8170Y29.8575
g01 X37.2163Y29.5913
g01 X37.4825Y29.1920
g01 X37.5814Y28.6979
g01 X37.4814Y28.2312
g01 X37.2211Y27.8408
g01 X36.8256Y27.5442
g01 X36.3229Y27.4436
g01 X35.8562Y27.5437
g01 X35.6276Y27.6961
g01 X29.7706Y25.8750
g01 X29.6987Y25.8750
g01 X29.6181Y25.8482
g01 X27.5401Y25.9271
g01 X27.3456Y26.0000
g01 X26.8750Y26.0000
G00 Z1.0000
G00 X11.6000Y30.7250
G01 Z-0.1400
G01 X11.3250Y30.2500
G01 X10.9250Y29.9000
G01 X10.4250Y29.7250
G01 X9.8750Y29.7250
G01 X9.3750Y29.9000
G01 X8.9750Y30.2500
G01 X8.7000Y30.7250
G01 X8.6000Y31.2500
G01 X8.7000Y31.7750
G01 X8.9750Y32.2500
G01 X9.3750Y32.6000
G01 X9.8750Y32.7750
G01 X10.4250Y32.7750
G01 X10.9250Y32.6000
G01 X11.3250Y32.2500
G01 X11.6000Y31.7750
G01 X11.7000Y31.2500
G01 X11.6000Y30.7250
g00 Z1.0000
g00 X9.8580Y29.6250
g01 Z-0.1400
g01 X9.3237Y29.8120
g01 X8.8967Y30.1856
g01 X8.6049Y30.6896
g01 X8.4982Y31.2500
g01 X8.6049Y31.8104
g01 X8.8967Y32.3144
g01 X9.3237Y32.6880
g01 X9.8580Y32.8750
g01 X10.4420Y32.8750
g01 X10.9763Y32.6880
g01 X11.4033Y32.3144
g01 X11.6951Y31.8104
g01 X11.8018Y31.2500
g01 X11.6951Y30.6896
g01 X11.4033Y30.1856
g01 X10.9763Y29.8120
g01 X10.4420Y29.6250
g01 X9.8580Y29.6250
g00 Z1.0000
g00 X9.8410Y29.5250
g01 Z-0.1400
g01 X9.2724Y29.7240
g01 X8.8185Y30.1212
g01 X8.5099Y30.6542
g01 X8.3964Y31.2500
g01 X8.5099Y31.8458
g01 X8.8185Y32.3788
g01 X9.2724Y32.7760
g01 X9.8410Y32.9750
g01 X10.4590Y32.9750
g01 X11.0276Y32.7760
g01 X11.4815Y32.3788
g01 X11.7901Y31.8458
g01 X11.9036Y31.2500
g01 X11.7901Y30.6542
g01 X11.4816Y30.1212
g01 X11.0276Y29.7240
g01 X10.4590Y29.5250
g01 X9.8410Y29.5250
g00 Z1.0000
g00 X9.8240Y29.4250
g01 Z-0.1400
g01 X9.2211Y29.6360
g01 X8.7402Y30.0568
g01 X8.4148Y30.6188
g01 X8.2946Y31.2500
g01 X8.4148Y31.8812
g01 X8.7402Y32.4432
g01 X9.2211Y32.8640
g01 X9.8240Y33.0750
g01 X10.4760Y33.0750
g01 X11.0789Y32.8640
g01 X11.5598Y32.4432
g01 X11.8852Y31.8812
g01 X12.0054Y31.2500
g01 X11.8852Y30.6188
g01 X11.5598Y30.0568
g01 X11.0789Y29.6360
g01 X10.4760Y29.4250
g01 X9.8240Y29.4250
G00 Z1.0000
G00 X5.2000Y34.2500
G01 Z-0.1400
G01 X4.9250Y33.7750
G01 X4.5250Y33.4250
G01 X4.0000Y33.2500
G01 X3.4750Y33.2500
G01 X2.9750Y33.4250
G01 X2.5500Y33.7750
G01 X2.2750Y34.2500
G01 X2.2000Y34.7750
G01 X2.2750Y35.3000
G01 X2.5500Y35.7750
G01 X2.9750Y36.1000
G01 X3.4750Y36.3000
G01 X4.0000Y36.3000
G01 X4.5250Y36.1000
G01 X4.9250Y35.7750
G01 X5.2000Y35.3000
G01 X5.3000Y34.7750
G01 X5.2000Y34.2500
g00 Z1.0000
g00 X3.4580Y33.1500
g01 Z-0.1400
g01 X2.9252Y33.3365
g01 X2.4725Y33.7093
g01 X2.1787Y34.2167
g01 X2.0990Y34.7750
g01 X2.1787Y35.3333
g01 X2.4734Y35.8423
g01 X2.9251Y36.1878
g01 X3.4557Y36.4000
g01 X4.0184Y36.4000
g01 X4.5756Y36.1877
g01 X5.0023Y35.8410
g01 X5.2951Y35.3354
g01 X5.4018Y34.7750
g01 X5.2951Y34.2146
g01 X5.0033Y33.7106
g01 X4.5757Y33.3365
g01 X4.0162Y33.1500
g01 X3.4580Y33.1500
g00 Z1.0000
g00 X3.4410Y33.0500
g01 Z-0.1400
g01 X2.8753Y33.2480
g01 X2.3950Y33.6436
g01 X2.0825Y34.1833
g01 X1.9980Y34.7750
g01 X2.0825Y35.3667
g01 X2.3969Y35.9097
g01 X2.8753Y36.2755
g01 X3.4365Y36.5000
g01 X4.0368Y36.5000
g01 X4.6262Y36.2755
g01 X5.0797Y35.9070
g01 X5.3901Y35.3708
g01 X5.5036Y34.7750
g01 X5.3901Y34.1792
g01 X5.0815Y33.6462
g01 X4.6264Y33.2480
g01 X4.0324Y33.0500
g01 X3.4410Y33.0500
g00 Z1.0000
g00 X3.4240Y32.9500
g01 Z-0.1400
g01 X2.8255Y33.1595
g01 X2.3175Y33.5778
g01 X1.9862Y34.1500
g01 X1.8970Y34.7750
g01 X1.9862Y35.4000
g01 X2.3203Y35.9770
g01 X2.8254Y36.3633
g01 X3.4172Y36.6000
g01 X4.0552Y36.6000
g01 X4.6768Y36.3632
g01 X5.1570Y35.9731
g01 X5.4852Y35.4062
g01 X5.6054Y34.7750
g01 X5.4852Y34.1438
g01 X5.1598Y33.5818
g01 X4.6771Y33.1595
g01 X4.0487Y32.9500
g01 X3.4240Y32.9500
G00 Z1.0000
G00 X43.6000Y31.1500
G01 Z-0.1400
G01 X43.7000Y31.6750
G01 X43.9750Y32.1500
G01 X44.3750Y32.5000
G01 X44.8750Y32.6750
G01 X45.4250Y32.6750
G01 X45.9250Y32.5000
G01 X46.3250Y32.1500
G01 X46.6000Y31.6750
G01 X46.7000Y31.1500
G01 X46.6000Y30.6250
G01 X46.3250Y30.1500
G01 X45.9250Y29.8000
G01 X45.4250Y29.6250
G01 X44.8750Y29.6250
G01 X44.3750Y29.8000
G01 X43.9750Y30.1500
G01 X43.7000Y30.6250
G01 X43.6000Y31.1500
g00 Z1.0000
g00 X43.8967Y30.0856
g01 Z-0.1400
g01 X43.6050Y30.5896
g01 X43.4982Y31.1500
g01 X43.6050Y31.7104
g01 X43.8967Y32.2144
g01 X44.3237Y32.5880
g01 X44.8580Y32.7750
g01 X45.4420Y32.7750
g01 X45.9763Y32.5880
g01 X46.4033Y32.2144
g01 X46.6951Y31.7104
g01 X46.8018Y31.1500
g01 X46.6951Y30.5896
g01 X46.4033Y30.0856
g01 X45.9763Y29.7120
g01 X45.4420Y29.5250
g01 X44.8580Y29.5250
g01 X44.3237Y29.7120
g01 X43.8967Y30.0856
g00 Z1.0000
g00 X43.8185Y30.0212
g01 Z-0.1400
g01 X43.5099Y30.5542
g01 X43.3964Y31.1500
g01 X43.5099Y31.7458
g01 X43.8185Y32.2788
g01 X44.2724Y32.6760
g01 X44.8410Y32.8750
g01 X45.4590Y32.8750
g01 X46.0276Y32.6760
g01 X46.4815Y32.2788
g01 X46.7901Y31.7458
g01 X46.9036Y31.1500
g01 X46.7901Y30.5542
g01 X46.4815Y30.0212
g01 X46.0276Y29.6240
g01 X45.4590Y29.4250
g01 X44.8410Y29.4250
g01 X44.2724Y29.6240
g01 X43.8185Y30.0212
g00 Z1.0000
g00 X43.7402Y29.9568
g01 Z-0.1400
g01 X43.4148Y30.5188
g01 X43.2946Y31.1500
g01 X43.4148Y31.7812
g01 X43.7402Y32.3432
g01 X44.2211Y32.7640
g01 X44.8240Y32.9750
g01 X45.4760Y32.9750
g01 X46.0789Y32.7640
g01 X46.5598Y32.3432
g01 X46.8852Y31.7812
g01 X47.0054Y31.1500
g01 X46.8852Y30.5188
g01 X46.5598Y29.9568
g01 X46.0789Y29.5360
g01 X45.4760Y29.3250
g01 X44.8240Y29.3250
g01 X44.2211Y29.5360
g01 X43.7402Y29.9568
G00 Z1.0000
G00 X49.9750Y21.1000
G01 Z-0.1400
G01 X50.4750Y21.3000
G01 X51.0000Y21.3000
G01 X51.5250Y21.1000
G01 X51.9250Y20.7750
G01 X52.2000Y20.3000
G01 X52.3000Y19.7750
G01 X52.2000Y19.2500
G01 X51.9250Y18.7750
G01 X51.5250Y18.4250
G01 X51.0000Y18.2500
G01 X50.4750Y18.2500
G01 X49.9750Y18.4250
G01 X49.5500Y18.7750
G01 X49.2750Y19.2500
G01 X49.2000Y19.7750
G01 X49.2750Y20.3000
G01 X49.5500Y20.7750
G01 X49.9750Y21.1000
g00 Z1.0000
g00 X49.1788Y19.2167
g01 Z-0.1400
g01 X49.0990Y19.7750
g01 X49.1788Y20.3333
g01 X49.4734Y20.8423
g01 X49.9251Y21.1878
g01 X50.4557Y21.4000
g01 X51.0184Y21.4000
g01 X51.5756Y21.1877
g01 X52.0023Y20.8410
g01 X52.2951Y20.3354
g01 X52.4018Y19.7750
g01 X52.2951Y19.2146
g01 X52.0033Y18.7106
g01 X51.5757Y18.3365
g01 X51.0162Y18.1500
g01 X50.4580Y18.1500
g01 X49.9252Y18.3365
g01 X49.4725Y18.7093
g01 X49.1788Y19.2167
g00 Z1.0000
g00 X49.0825Y19.1834
g01 Z-0.1400
g01 X48.9980Y19.7750
g01 X49.0825Y20.3667
g01 X49.3969Y20.9097
g01 X49.8753Y21.2755
g01 X50.4365Y21.5000
g01 X51.0368Y21.5000
g01 X51.6262Y21.2755
g01 X52.0797Y20.9070
g01 X52.3901Y20.3708
g01 X52.5036Y19.7750
g01 X52.3901Y19.1792
g01 X52.0815Y18.6462
g01 X51.6264Y18.2480
g01 X51.0325Y18.0500
g01 X50.4410Y18.0500
g01 X49.8753Y18.2480
g01 X49.3950Y18.6436
g01 X49.0825Y19.1834
g00 Z1.0000
g00 X48.9862Y19.1500
g01 Z-0.1400
g01 X48.8970Y19.7750
g01 X48.9862Y20.4000
g01 X49.3203Y20.9770
g01 X49.8254Y21.3633
g01 X50.4172Y21.6000
g01 X51.0552Y21.6000
g01 X51.6768Y21.3632
g01 X52.1570Y20.9731
g01 X52.4852Y20.4062
g01 X52.6054Y19.7750
g01 X52.4852Y19.1438
g01 X52.1598Y18.5818
g01 X51.6771Y18.1595
g01 X51.0487Y17.9500
g01 X50.4240Y17.9500
g01 X49.8255Y18.1595
g01 X49.3175Y18.5778
g01 X48.9862Y19.1500
G00 Z1.0000
G00 X45.9750Y11.6500
G01 Z-0.1400
G01 X46.4750Y11.4500
G01 X46.8750Y11.1250
G01 X47.1500Y10.6500
G01 X47.2500Y10.1250
G01 X47.1500Y9.6000
G01 X46.8750Y9.1250
G01 X46.4750Y8.7750
G01 X45.9750Y8.6000
G01 X45.4250Y8.6000
G01 X44.9250Y8.7750
G01 X44.5250Y9.1250
G01 X44.2500Y9.6000
G01 X44.1500Y10.1250
G01 X44.2500Y10.6500
G01 X44.5250Y11.1250
G01 X44.9250Y11.4500
G01 X45.4250Y11.6500
G01 X45.9750Y11.6500
g00 Z1.0000
g00 X44.1550Y9.5646
g01 Z-0.1400
g01 X44.0482Y10.1250
g01 X44.1550Y10.6854
g01 X44.4477Y11.1910
g01 X44.8737Y11.5372
g01 X45.4057Y11.7500
g01 X45.9943Y11.7500
g01 X46.5263Y11.5372
g01 X46.9523Y11.1910
g01 X47.2451Y10.6854
g01 X47.3518Y10.1250
g01 X47.2451Y9.5646
g01 X46.9533Y9.0606
g01 X46.5263Y8.6870
g01 X45.9920Y8.5000
g01 X45.4080Y8.5000
g01 X44.8737Y8.6870
g01 X44.4467Y9.0606
g01 X44.1550Y9.5646
g00 Z1.0000
g00 X44.0599Y9.5292
g01 Z-0.1400
g01 X43.9464Y10.1250
g01 X44.0599Y10.7208
g01 X44.3703Y11.2570
g01 X44.8225Y11.6244
g01 X45.3865Y11.8500
g01 X46.0135Y11.8500
g01 X46.5775Y11.6244
g01 X47.0297Y11.2570
g01 X47.3401Y10.7208
g01 X47.4536Y10.1250
g01 X47.3401Y9.5292
g01 X47.0315Y8.9962
g01 X46.5776Y8.5990
g01 X46.0090Y8.4000
g01 X45.3910Y8.4000
g01 X44.8224Y8.5990
g01 X44.3685Y8.9962
g01 X44.0599Y9.5292
g00 Z1.0000
g00 X43.9648Y9.4938
g01 Z-0.1400
g01 X43.8446Y10.1250
g01 X43.9648Y10.7562
g01 X44.2930Y11.3231
g01 X44.7712Y11.7116
g01 X45.3672Y11.9500
g01 X46.0328Y11.9500
g01 X46.6288Y11.7116
g01 X47.1070Y11.3231
g01 X47.4352Y10.7562
g01 X47.5554Y10.1250
g01 X47.4352Y9.4938
g01 X47.1098Y8.9318
g01 X46.6289Y8.5110
g01 X46.0260Y8.3000
g01 X45.3740Y8.3000
g01 X44.7711Y8.5110
g01 X44.2902Y8.9318
g01 X43.9648Y9.4938
G00 Z1.0000
(Ende)
G80
G90
G00 Z10 X0 Y0
M05
M09
M30