%Generated by HPGL2GCODE
(Start)
M03 S500
G4 P1
M03 S750
G4 P1
M03 S1000
G4 P2
(Initialize HP-GL/2-mode)
(PT0)
G21
G90
G94
F80.00
G00 Z1.0000
(SP5)
G00 X7.7500Y7.8250
G01 Z-0.2800
G01 X7.8500Y33.6250
G01 X47.8000Y33.4000
G01 X47.8750Y7.8000
G01 X7.7750Y7.8000
G00 Z1.0000
G00 X0.0000Y39.0000
G01 Z-0.2800
G01 X55.0000Y39.0000
G01 X55.0000Y0.0000
G01 X0.0000Y0.0000
G01 X0.0000Y39.0000
G00 Z1.0000
(SP5)
G00 X7.7500Y7.8250
G01 Z-0.5600
G01 X7.8500Y33.6250
G01 X47.8000Y33.4000
G01 X47.8750Y7.8000
G01 X7.7750Y7.8000
G00 Z1.0000
G00 X0.0000Y39.0000
G01 Z-0.5600
G01 X55.0000Y39.0000
G01 X55.0000Y0.0000
G01 X0.0000Y0.0000
G01 X0.0000Y39.0000
G00 Z1.0000
(SP5)
G00 X7.7500Y7.8250
G01 Z-0.8400
G01 X7.8500Y33.6250
G01 X47.8000Y33.4000
G01 X47.8750Y7.8000
G01 X7.7750Y7.8000
G00 Z1.0000
G00 X0.0000Y39.0000
G01 Z-0.8400
G01 X55.0000Y39.0000
G01 X55.0000Y0.0000
G01 X0.0000Y0.0000
G01 X0.0000Y39.0000
G00 Z1.0000
(SP5)
G00 X7.7500Y7.8250
G01 Z-1.1200
G01 X7.8500Y33.6250
G01 X47.8000Y33.4000
G01 X47.8750Y7.8000
G01 X7.7750Y7.8000
G00 Z1.0000
G00 X0.0000Y39.0000
G01 Z-1.1200
G01 X55.0000Y39.0000
G01 X55.0000Y0.0000
G01 X0.0000Y0.0000
G01 X0.0000Y39.0000
G00 Z1.0000
(SP5)
G00 X7.7500Y7.8250
G01 Z-1.4000
G01 X7.8500Y33.6250
G01 X47.8000Y33.4000
G01 X47.8750Y7.8000
G01 X7.7750Y7.8000
G00 Z1.0000
G00 X0.0000Y39.0000
G01 Z-1.4000
G01 X55.0000Y39.0000
G01 X55.0000Y0.0000
G01 X0.0000Y0.0000
G01 X0.0000Y39.0000
G00 Z1.0000
(Ende)
G80
G90
G00 Z10 X0 Y0
M05
M09
M30